!!!!SEGMENT: pl-cz--iii-178_elsner-jozef--o-gloriosa-virginum.krn
!!!cenid: 18xx:220
!!!COM: Elsner, Józef
!!!COM-rismID: pe30000957
!!!CDT: 1769/06/01-1854/04/18
!!!CNT: Polish
!!!OTL: O gloriosa Virginum
!!!PDT:
!!!AGN: Sacred
!!!SMS-siglum: PL-CZ
!!!SMS-shelfmark: III-178
!!!SMS-shelfwork: W
!!!NIFC-rismSourceID: 300000262
!!!NIFC-rismChildID: 300000262
!!!NIFC-islandoraID: pl-cz:35159
!!!URL-pdf-islandora: https://repozytorium.nifc.pl/islandora/object/pl-cz%3A35159/datastream/PDF/view
!!!URL-scan:
!!!ONB-nifc:
!!!AIN: 1 alto 2 clars 2 cor 2 empty 1 flt 1 tenor 1 viola 2 violn 1 vox
!!!key:
**kern	**dynam	**kern	**dynam	**kern	**dynam	**kern	**dynam	**kern	**text	**kern	**text	**kern	**text	**kern	**text	**kern	**dynam	**kern	**dynam	**kern	**kern	**kern
*part13	*part13	*part12	*part12	*part11	*part11	*part10	*part10	*part9	*part9	*part8	*part8	*part7	*part7	*part6	*part6	*part5	*part5	*part4	*part4	*part3	*part2	*part1
*group4	*	*group4	*	*group4	*	*group4	*	*group3	*	*group3	*	*group3	*	*group3	*	*group2	*	*group2	*	*group1	*group1	*group1
*staff13	*	*staff12	*	*staff11	*	*staff10	*	*staff9	*staff9	*staff8	*staff8	*staff7	*staff7	*staff6	*staff6	*staff5	*	*staff4	*	*staff3	*staff2	*staff1
*Iempty	*	*Iviola	*	*Ivioln	*	*Ivioln	*	*Iempty	*	*Itenor	*	*Ialto	*	*Ivox	*	*Icor	*	*Icor	*	*Iclars	*Iclars	*Iflt
*I"Baſso.	*	*I"Viola.	*	*I"Violino 2do.	*	*I"Violino 1mo.	*	*I"Baſso.	*	*I"Tenore	*	*I"Alto.	*	*I"Canto.	*	*I"Corno 2do in Es	*	*I"Corno 1mo in Es	*	*I"Clarinetto in B. 2do.	*I"Clarinetto in B 1mo	*I"Flauto
*I'V-c.	*	*I'V-la	*	*I'V-no	*	*I'V-no	*	*I'B.	*	*I'T.	*	*I'A.	*	*I'V.	*	*I'C. in F	*	*I'C. in F	*	*I'Cl. in B♭	*I'Cl. in B♭	*I'Fl.
*clefF4	*	*clefC3	*	*clefG2	*	*clefG2	*	*clefF4	*	*clefC4	*	*clefC3	*	*clefC1	*	*clefG2	*	*clefG2	*	*clefG2	*clefG2	*clefG2
*	*	*	*	*	*	*	*	*	*	*	*	*	*	*	*	*ITrd5c9	*	*ITrd5c9	*	*ITrd1c2	*ITrd1c2	*
*k[b-e-]	*	*k[b-e-]	*	*k[b-e-]	*	*k[b-e-]	*	*k[b-e-]	*	*k[b-e-]	*	*k[b-e-]	*	*k[b-e-]	*	*k[b-e-a-]	*	*k[b-e-a-]	*	*k[b-e-]	*k[b-e-]	*k[b-e-]
*B-:	*	*B-:	*	*B-:	*	*B-:	*	*B-:	*	*B-:	*	*B-:	*	*B-:	*	*B-:	*	*B-:	*	*B-:	*B-:	*B-:
*M4/4	*	*M4/4	*	*M4/4	*	*M4/4	*	*M4/4	*	*M4/4	*	*M4/4	*	*M4/4	*	*M4/4	*	*M4/4	*	*M4/4	*M4/4	*M4/4
*met(c)	*	*met(c)	*	*met(c)	*	*met(c)	*	*met(c)	*	*met(c)	*	*met(c)	*	*met(c)	*	*met(c)	*	*met(c)	*	*met(c)	*met(c)	*met(c)
!	!	!	!	!	!	!	!	!	!	!	!	!	!	!	!	!	!	!	!	!	!	!LO:TX:a:t=P:problem=we wszystkich głosach caudy w dół po prawej stronie, oprócz tych na liniach dodanych górnych (nie dotyczy półnut)
!LO:TX:a:i:t=Allegro moderato.	!	!LO:TX:a:i:t=Allegro modto	!	!LO:TX:a:i:t=Allegro modto	!	!LO:TX:a:i:t=Allegro moderato	!	!LO:TX:a:i:t=Allegro moderato.	!	!LO:TX:a:i:t=Allegro moderato.	!	!LO:TX:a:i:t=Allegro moderato.	!	!LO:TX:a:i:t=Allegro modto	!	!LO:TX:a:i:t=Allegro modto	!	!LO:TX:a:i:t=Allegro modto.	!	!LO:TX:a:i:t=Allegro moderato	!LO:TX:a:i:t=Allegro modto	!LO:TX:a:i:t=Allegro modto
!	!	!LO:TX:a:t=P:problem=przy kluczu bemole as i es	!	!	!	!	!LO:DY:rj:t=p.	!	!	!LO:TX:a:t=P:problem=przy kluczu bemole as i des	!	!	!	!	!	!LO:TX:a:t=P:problem=brak znaków przy kluczu	!	!LO:TX:a:t=P:problem=brak znaków przy kluczu	!	!	!	!
*	*	*	*	*	*	*	*below	*	*	*	*	*	*	*	*	*	*	*	*	*	*	*
8r	.	8r	.	8d/L	.	8b-\L	p	8r	.	8r	.	8r	.	8r	.	8r	.	8r	.	8d/L	8b-\L	8r
4r	.	4r	.	8f/	.	8dd\	.	4r	.	4r	.	4r	.	4r	.	4r	.	4r	.	(8f/	8dd\	4r
.	.	.	.	8e-/J	.	8cc\J	.	.	.	.	.	.	.	.	.	.	.	.	.	8e-/J	8cc\J	.
=1	=1	=1	=1	=1	=1	=1	=1	=1	=1	=1	=1	=1	=1	=1	=1	=1	=1	=1	=1	=1	=1	=1
!	!LO:DY:rj	!	!	!	!	!	!	!LO:TX:a:t=6.	!	!LO:TX:a:t=6.	!	!LO:TX:a:t=5.	!	!LO:TX:a:t=5	!	!	!	!	!	!	!	!LO:TX:a:t=3.
8r	p	8r	.	[2d/	.	(8b-\L	.	00r	.	00r	.	00r	.	00r	.	8r	.	8r	.	4d/)	4b-\	0r
8BB-/L	.	8B-/L	.	.	.	8f\J)	.	.	.	.	.	.	.	.	.	8BB-/L	.	8B-/L	.	.	.	.
8BB-/	.	8B-/	.	.	.	4.f\	.	.	.	.	.	.	.	.	.	8BB-/	.	8B-/	.	4r	4r	.
8BB-/J	.	8B-/J	.	.	.	.	.	.	.	.	.	.	.	.	.	8BB-/J	.	8B-/J	.	.	.	.
!	!	!	!	!LO:TX:b:t=P:problem=mixed beam	!	!	!	!	!	!	!	!	!	!	!	!	!	!	!	!	!	!
4BB-/	.	4B-/	.	8d/L]	.	.	.	.	.	.	.	.	.	.	.	4BB-/	.	4B-/	.	8r	8r	.
.	.	.	.	8b-\	.	8dd\L	.	.	.	.	.	.	.	.	.	.	.	.	.	(8b-\L	8dd\L	.
4BB-/	.	4B-/	.	8dd\	.	8ff\	.	.	.	.	.	.	.	.	.	4r	.	4r	.	8dd\	8ff\	.
.	.	.	.	8cc\J	.	8ee-\J	.	.	.	.	.	.	.	.	.	.	.	.	.	8cc\J)	8ee-\J	.
=2	=2	=2	=2	=2	=2	=2	=2	=2	=2	=2	=2	=2	=2	=2	=2	=2	=2	=2	=2	=2	=2	=2
!	!	!	!	!LO:TX:b:t=P:problem=mixed beam	!	!	!	!	!	!	!	!	!	!	!	!	!	!	!	!	!	!
4BB-/	.	4B-/	.	8b-\L	.	(8dd\L	.	.	.	.	.	.	.	.	.	8r	.	8r	.	4b-\	4dd\	.
.	.	.	.	8d/J	.	8b-\J)	.	.	.	.	.	.	.	.	.	8BB-/L	.	8B-/L	.	.	.	.
4BB-/	.	4B-/	.	4.d/	.	4.b-\	.	.	.	.	.	.	.	.	.	8BB-/	.	8B-/	.	4r	4r	.
.	.	.	.	.	.	.	.	.	.	.	.	.	.	.	.	8BB-/J	.	8B-/J	.	.	.	.
!	!	!	!	!	!	!	!	!	!	!	!	!	!	!	!	!LO:TX:a:t=P:problem=mixed beam	!	!	!	!	!	!
8BB-/	.	8B-/	.	.	.	.	.	.	.	.	.	.	.	.	.	8BB-/L	.	8B-/L	.	8r	8r	.
8D\L	.	8d\L	.	8b-L 8f/	.	8ff\L	.	.	.	.	.	.	.	.	.	8B-\	.	8f/	.	8b-\L	8ff\L	.
8D\	.	8d\	.	8b- 8f/	.	8bb-\	.	.	.	.	.	.	.	.	.	8B-\	.	8f/	.	8b-\	8bb-\	.
8D\J	.	8d\J	.	8b-J 8f/	.	8aa\J	.	.	.	.	.	.	.	.	.	8B-\J	.	8f/J	.	8b-\J	8aa\J	.
=3	=3	=3	=3	=3	=3	=3	=3	=3	=3	=3	=3	=3	=3	=3	=3	=3	=3	=3	=3	=3	=3	=3
*2\right	*	*2\right	*	*	*	*	*	*	*	*	*	*	*	*	*	*	*	*	*	*	*	*
2E-\	.	2e-\	.	4ee- 4e-\	.	4gg 4b-\	.	.	.	.	.	.	.	.	.	4e-\	.	4g\	.	4b-\	4gg\	1r
.	.	.	.	(8dd\L	.	(8ff\L	.	.	.	.	.	.	.	.	.	4r	.	4r	.	4r	4r	.
.	.	.	.	8cc\J)	.	8ee-\J	.	.	.	.	.	.	.	.	.	.	.	.	.	.	.	.
4F\	.	4f\	.	8b-\L	.	8dd\L	.	.	.	.	.	.	.	.	.	4f\	.	4f\	.	8r	8r	.
.	.	.	.	8a\	.	8cc\)	.	.	.	.	.	.	.	.	.	.	.	.	.	8a\L	8cc\L	.
4F\	.	4f\	.	8dd\	.	8ff\	.	.	.	.	.	.	.	.	.	4f\	.	4f\	.	8dd\	8ff\	.
.	.	.	.	8cc\J	.	8ee-\J	.	.	.	.	.	.	.	.	.	.	.	.	.	8cc\J	8ee-\J	.
=4	=4	=4	=4	=4	=4	=4	=4	=4	=4	=4	=4	=4	=4	=4	=4	=4	=4	=4	=4	=4	=4	=4
!	!	!	!	!	!	!LO:LB:g=original	!	!	!	!	!	!	!	!	!	!	!	!	!	!	!	!
*	*	*	*	*	*	*	*	*	*	*	*	*	*	*	*	*	*	*2\right	*	*	*	*
2BB-/	.	[2B-/	.	8a/L	.	(8cc#X\L	.	.	.	.	.	.	.	.	.	2B-/	.	2f\	.	8a\L	8.cc#X\L	2r
.	.	.	.	8b-/J	.	8dd\J)	.	.	.	.	.	.	.	.	.	.	.	.	.	8b-\J	.	.
.	f	.	.	.	.	.	.	.	.	.	.	.	.	.	.	.	.	.	.	.	16dd\Jk	.
.	.	.	.	4.b-/	.	4.dd\	f	.	.	.	.	.	.	.	.	.	.	.	.	4.b-\	4.dd\	.
8BB-\	.	8B-/L]	.	.	.	.	.	.	.	.	.	.	.	.	.	8B-/L	.	8f\	.	.	.	8r
8D\L	.	8d/	.	8b-L 8f/	.	8ff\L	.	.	.	.	.	.	.	.	.	8B-/	.	8f\L	.	8b-\L	8ff\L	8fff\L
8D\	.	8d/	.	8b- 8f/	.	8bb-\	.	.	.	.	.	.	.	.	.	8B-/	.	8f\	.	8b-\	8bb-\	8fff\
8D\J	.	8d/J	.	8b-J 8f/	.	8aa\J	.	.	.	.	.	.	.	.	.	8B-/J	.	8f\J	.	8b-\J	8aa\J	8fff\J
=5	=5	=5	=5	=5	=5	=5	=5	=5	=5	=5	=5	=5	=5	=5	=5	=5	=5	=5	=5	=5	=5	=5
!LO:LB:g=original	!	!LO:LB:g=original	!	!LO:LB:g=original	!	!	!	!	!	!	!	!	!	!	!	!LO:LB:g=original	!	!LO:LB:g=original	!	!LO:LB:g=original	!LO:LB:g=original	!
4E-\	.	4e-\	.	4ee- 4e-\	.	(8ff#X\L	.	0r	.	0r	.	1r	.	1r	.	4e-\	.	4e-\	.	4b-\	8ff#X\L	8fff#X\L
.	.	.	.	.	.	8gg\J	.	.	.	.	.	.	.	.	.	.	.	.	.	.	8gg\J	8ggg\J
4E-\	.	4e-\	.	16a/LL	.	16ffn\LL	.	.	.	.	.	.	.	.	.	4e-\	.	4g\	.	16a\LL	(16ff\LL	16fffn\LL
.	.	.	.	(16g/	.	16ee-\	.	.	.	.	.	.	.	.	.	.	.	.	.	16g\	16ee-\	16eee-\
.	.	.	.	16f/	.	16dd\)	.	.	.	.	.	.	.	.	.	.	.	.	.	16f\	16dd\	16ddd\
.	.	.	.	16e-/JJ)	.	16cc\JJ	.	.	.	.	.	.	.	.	.	.	.	.	.	16e-\JJ	16cc\JJ	16ccc\JJ
4F\	.	4f\	.	8d/L	.	8b-\L	.	.	.	.	.	.	.	.	.	4f\	.	4f\	.	8d/L	8b-\L)	8bb-\L
.	.	.	.	8c/	.	8a\	.	.	.	.	.	.	.	.	.	.	.	.	.	8c/	8a\	8aa\
4FF/	.	4F/	.	8B-/	.	8dd\	.	.	.	.	.	.	.	.	.	4f\	.	4f\	.	8B-/	8dd\	8fff\
.	.	.	.	8A/J	.	8cc\J	.	.	.	.	.	.	.	.	.	.	.	.	.	8A/J	8cc\J	8eee-\J
=6	=6	=6	=6	=6	=6	=6	=6	=6	=6	=6	=6	=6	=6	=6	=6	=6	=6	=6	=6	=6	=6	=6
*	*	*	*	*^	*	*	*	*	*	*	*	*	*	*	*	*	*	*	*	*	*	*
4BB-/	.	4B-/	.	4d/	2B-/	.	4b-\	.	.	.	.	.	2r	.	2r	.	4B-/	.	4f\	.	4d/	4b-\	4ddd\
4BB-/	.	4B-/	.	4f/	.	.	4dd\	.	.	.	.	.	.	.	.	.	4B-/	.	4f\	.	4f/	4dd\	4bb-\
4BB-/	.	4B-/	.	8d/	2ryy	.	8b-\	.	.	.	.	.	8r	.	8r	.	4B-/	.	4f\	.	4d/	4b-\	4aa\
.	.	.	.	.	.	.	.	p	.	.	.	.	.	.	.	.	.	.	.	.	.	.	.
.	.	.	.	8d'/L	.	.	8b-\L	.	.	.	.	.	8d\	O	8b-\	O	.	.	.	.	.	.	.
4r	.	4r	.	8f'/	.	.	8dd\	.	.	.	.	.	8f\	Glo-	8dd\	Glo-	4r	.	4r	.	8f/L	8dd\L	4r
.	p	.	.	8e-'/J	.	.	8cc\J	.	.	.	.	.	8e-\	-ri-	8cc\	-ri-	.	.	.	.	8e-/J	8cc\J	.
*	*	*	*	*v	*v	*	*	*	*	*	*	*	*	*	*	*	*	*	*	*	*	*	*
=7	=7	=7	=7	=7	=7	=7	=7	=7	=7	=7	=7	=7	=7	=7	=7	=7	=7	=7	=7	=7	=7	=7
!	!	!	!	!	!	!	!	!	!	!	!	!	!	!	!	!	!	!	!	!	!	!LO:LB:g=original
!	!	!	!	!	!	!	!	!	!	!	!	!	!	!	!	!	!	!	!	!	!	!LO:N:vis=2
8r	.	8r	.	4d/	.	4b-\	.	8r	.	8r	.	4d\	-o-	4b-\	-o-	8r	.	8r	.	4d/	4b-\	1r
8BB-/L	.	8B-/L	.	.	.	.	.	8BB-/	O	8B-\	o	.	.	.	.	8B-/L	.	8B-/L	.	.	.	.
8BB-/	.	8B-/	.	4c/	.	4a\	.	8BB-/	Glo-	8B-\	Glo-	4c\	-sa	4a\	-sa	8B-/	.	8B-/	.	4c/	4a\	.
8BB-/J	.	8B-/J	.	.	.	.	.	8BB-/	-ri-	8B-\	-ri-	.	.	.	.	8B-/J	.	8B-/J	.	.	.	.
4BB-/	.	4B-/	.	4f/	.	4ff\	.	4BB-/	-o-	4B-\	-o-	4f\	Vir-	4dd\	Vir-	4B-/	.	4B-/	.	4f/	4dd\	.
4BB-/	.	4B-/	.	4e-/	.	4ee-\	.	4BB-/	-sa	4B-\	-sa	4e-\	-gi-	4cc\	-gi-	4B-/	.	4B-/	.	4e-/	4cc\	.
=8	=8	=8	=8	=8	=8	=8	=8	=8	=8	=8	=8	=8	=8	=8	=8	=8	=8	=8	=8	=8	=8	=8
*	*	*	*	*	*	*2\right	*	*	*	*	*	*2\right	*	*2\right	*	*	*	*	*	*	*2\right	*
8BB-/	.	4B-\	.	2d/	.	2b-\	.	4BB-/	Vir-	4B-\	Vir-	2d\	-num,	2b-\	-num	2B-/	.	2B-/	.	2d/	2b-\	4r
8BB-/L	.	.	.	.	.	.	.	.	.	.	.	.	.	.	.	.	.	.	.	.	.	.
8D/	.	8f\L	.	.	.	.	.	8D/L	-gi-	8f\L	-gi-	.	.	.	.	.	.	.	.	.	.	8fff\L
8BB-/J	.	8d\J	.	.	.	.	.	8BB-/J	.	8d\J	.	.	.	.	.	.	.	.	.	.	.	8ddd\J
4F\	.	4c\	.	8r	.	8r	.	4F\	-num	4c\	-num	8r	.	8r	.	2r	.	2r	.	8r	8r	4ccc\
.	.	.	.	8a\L	.	8cc\L	.	.	.	.	.	8a\	o	8cc\	o	.	.	.	.	8a\L	8cc\L	.
4r	.	4r	.	8cc\	.	8ee-\	.	4r	.	4r	.	8cc\	glo-	8ee-\	glo-	.	.	.	.	8cc\	8ee-\	4r
.	.	.	.	8b-\J	.	8dd\J	.	.	.	.	.	8b-\	-ri-	8dd\	-ri-	.	.	.	.	8b-\J	8dd\J	.
=9	=9	=9	=9	=9	=9	=9	=9	=9	=9	=9	=9	=9	=9	=9	=9	=9	=9	=9	=9	=9	=9	=9
!	!	!	!	!	!	!LO:LB:g=original	!	!LO:LB:g=original	!	!LO:LB:g=original	!	!LO:LB:g=original	!	!LO:LB:g=original	!	!	!	!	!	!	!	!
8r	.	8r	.	4a/	.	4cc\	.	8r	.	8r	.	4a\	-o-	4cc\	-o-	8r	.	8r	.	4a\	4cc\	4ccc\
8F\L	.	8F/L	.	.	.	.	.	8F\	o	8f\	o	.	.	.	.	8f\L	.	8f\L	.	.	.	.
8F\	.	8F/	.	4g/	.	4b-\	.	8F\	glo-	8f\	glo-	4g\	-sa	4b-\	-sa	8f\	.	8f\	.	4g\	4b-\	4bb-\
8F\J	.	8F/J	.	.	.	.	.	8F\	-ri-	8f\	-ri-	.	.	.	.	8f\J	.	8f\J	.	.	.	.
*	*	*	*	*	*	*	*	*	*	*	*	*	*	*	*	*2\right	*	*	*	*	*	*
4F\	.	4F/	.	4f/	.	4a\	.	4F\	-o-	4f\	-o-	4f\	Vir-	4a\	Vir-	2f\	.	2f\	.	4f\	4a\	4aa\
4F\	.	4F/	.	4g/	.	4b-\	.	4F\	-sa	4f\	-sa	4g\	-gi-	4b-\	-gi-	.	.	.	.	4g\	4b-\	4bb-\
=10	=10	=10	=10	=10	=10	=10	=10	=10	=10	=10	=10	=10	=10	=10	=10	=10	=10	=10	=10	=10	=10	=10
!LO:LB:g=original	!	!LO:LB:g=original	!	!	!	!	!	!	!	!	!	!	!	!	!	!	!	!	!	!	!	!
*	*	*	*	*	*	*	*	*	*	*	*	*	*	*	*	*	*	*	*	*2\right	*	*2\right
8F\	.	4F/	.	2a/	.	2cc\	.	4F\	Vir-	4f\	Vir-	2a\	-num,	2cc\	-num	2f\	.	2f\	.	2a\	2cc\	2bb-\
8F\L	.	.	.	.	.	.	.	.	.	.	.	.	.	.	.	.	.	.	.	.	.	.
8A\	.	8c/L	.	.	.	.	.	8A\L	-gi-	8c\L	-gi-	.	.	.	.	.	.	.	.	.	.	.
8F\J	.	8A/J	.	.	.	.	.	8F\J	.	8A\J	.	.	.	.	.	.	.	.	.	.	.	.
4B-\	.	4d\	.	8r	.	8r	.	4B-\	-num	4d\	-num	8r	.	8r	.	2r	.	2r	.	8r	8r	8ccc\L
.	.	.	.	8b-\L	.	8dd\L	.	.	.	.	.	8b-\	o	8dd\	o	.	.	.	.	8a\L	8dd\L	8aa\J
!	!	!	!	!	!	!	!	!	!	!	!	!	!	!	!	!	!	!	!	!	!	!LO:N:vis=4
4r	.	4r	.	8dd\	.	8ff\	.	4r	.	4r	.	8dd\	glo-	8ff\	glo-	.	.	.	.	8dd\	8ff\	8ddd\
!	!	!	!	!	!	!	!	!	!	!	!	!	!	!	!	!	!	!	!	!	!	!LO:N:vis=4
.	.	.	.	8cc\J	.	8ee-\J	.	.	.	.	.	8cc\	-ri-	8ee-\	-ri-	.	.	.	.	8cc\J	8ee-\J	8r
=11	=11	=11	=11	=11	=11	=11	=11	=11	=11	=11	=11	=11	=11	=11	=11	=11	=11	=11	=11	=11	=11	=11
!	!	!	!	!LO:LB:g=original	!	!	!	!	!	!	!	!	!	!	!	!LO:LB:g=original	!	!	!	!LO:LB:g=original	!LO:LB:g=original	!
8r	.	8r	.	4b-\	.	4dd\	.	8r	.	8r	.	(4b-\	-o-	(4dd\	-o-	8r	.	8r	.	4b-\	4dd\	2r
*	*	*	*	*	*	*	*	*	*ij	*	*ij	*	*	*	*	*	*	*	*	*	*	*
8B-\L	.	8B-/L	.	.	.	.	.	8B-\	o	8B-\	o	.	.	.	.	8B-/L	.	8B-/L	.	.	.	.
8B-\	.	8B-/	.	4cc\	.	4ee-\	.	8B-\	glo-	8B-\	glo-	4cc\)	.	4ee-\)	.	8B-/	.	8B-/	.	4cc\	4ee-\	.
8B-\J	.	8B-/J	.	.	.	.	.	8B-\	-ri-	8B-\	-ri-	.	.	.	.	8B-/J	.	8B-/J	.	.	.	.
4B-\	.	4B-/	.	4dd\	.	4ff\	.	4B-\	-o-	4B-\	-o-	(4dd\	-sa	(4ff\	-sa	4B-/	.	4B-/	.	4dd\	4ff\	4r
4BB-/	.	4B-/	.	4a\	.	4dd\	.	4BB-/	-sa	4f\	-sa	4b-\)	.	4dd\)	.	4f 4B-\	.	4f\	.	4b-\	4dd\	4ddd\
=12	=12	=12	=12	=12	=12	=12	=12	=12	=12	=12	=12	=12	=12	=12	=12	=12	=12	=12	=12	=12	=12	=12
!	!	!	!	!	!	!	!	!	!	!	!	!	!	!	!	!	!	!LO:LB:g=original	!	!	!	!
4E-\	.	4E-/	.	8r	.	8r	.	4E-\	Vir-	4e-\	Vir-	4.b-\	Vir-	4.gg\	Vir-	4g 4e-\	.	4g\	.	4.b-\	4.gg\	4.ggg\
.	.	.	.	8b-\L	.	8gg\L	.	.	.	.	.	.	.	.	.	.	.	.	.	.	.	.
4E-\	.	4E-/	.	8b-\	.	8gg\	.	4E-\	-gi-	4B-\	-gi-	.	.	.	.	4r	.	4r	.	.	.	.
.	.	.	.	8a\J	.	8ff\J	.	.	.	.	.	8a\	-gi-	8ff\	-gi-	.	.	.	.	8a\	8ff\	8fff\
4E-\	.	4E-/	.	8r	.	8r	.	4E-\	-num	4B-\	-num	4g\	-num	4ee-\	-num	4r	.	4r	.	4g\	4ee-\	2eee-\
*	*	*	*	*	*	*	*	*	*Xij	*	*Xij	*	*	*	*	*	*	*	*	*	*	*
.	.	.	.	8g/L	.	8ee-\L	.	.	.	.	.	.	.	.	.	.	.	.	.	.	.	.
4E-\	.	4E-/	.	8g/	.	8ee-\	.	4E-\	Su-	4B-\	Su-	4g\	Su-	4ee-\	Su-	4g 4e-\	.	4g\	.	4g\	4ee-\	.
.	.	.	.	8g/J	.	8ee-\J	.	.	.	.	.	.	.	.	.	.	.	.	.	.	.	.
=13	=13	=13	=13	=13	=13	=13	=13	=13	=13	=13	=13	=13	=13	=13	=13	=13	=13	=13	=13	=13	=13	=13
!	!	!	!	!	!	!	!	!LO:LB:g=original	!	!LO:LB:g=original	!	!	!	!	!	!	!	!	!	!	!	!LO:LB:g=original
4F\	.	4F/	.	8r	.	8r	.	4F\	-bli-	4.B-\	-bli-	4.f\	-bli-	4.dd\	-bli-	2f\	.	2f\	.	4.f\	4.dd\	4.ddd\
.	.	.	.	8f/L	.	8dd\L	.	.	.	.	.	.	.	.	.	.	.	.	.	.	.	.
4F\	.	4f\	.	8f/	.	8dd\	.	4F\	-mis	.	.	.	.	.	.	.	.	.	.	.	.	.
.	.	.	.	8g/J	.	8ee-\J	.	.	.	8B-\	-mis	8g\	-mis	8ee-\	-mis	.	.	.	.	8b-\	8ee-\	8eee-\
4F\	.	4.A/	.	8r	.	8r	.	4F\	in-	4.A\	in-	4.e-\	in-	4.cc\	in-	2f\	.	2f\	.	4.a\	4.cc\	4.ccc\
.	.	.	.	8e-/L	.	8cc\L	.	.	.	.	.	.	.	.	.	.	.	.	.	.	.	.
4F\	.	.	.	8e-/	.	8cc\	.	4F\	-ter	.	.	.	.	.	.	.	.	.	.	.	.	.
.	.	8B-/	.	8f/J	.	8dd\J	.	.	.	8B-\	-ter	8f\	-ter	8dd\	-ter	.	.	.	.	8b-\	8dd\	8ddd\
=14	=14	=14	=14	=14	=14	=14	=14	=14	=14	=14	=14	=14	=14	=14	=14	=14	=14	=14	=14	=14	=14	=14
!	!	!	!	!	!	!LO:LB:g=original	!	!	!	!	!	!LO:LB:g=original	!	!LO:LB:g=original	!	!	!	!	!	!	!	!
4.G\	.	4.G/	.	4.d/	.	4.b-\	.	4.G\	si-	4.B-\	si-	4.d\	si-	4.b-\	si-	4.g\	.	4.g\	.	4.b-\	4.dd\	4.bb-\
8G\	.	8G/	.	8d/	.	8b-\	.	8G\	-de-	8B-\	-de-	8d\	-de-	8b-\	-de-	8g\	.	8g\	.	8b-\	8dd\	8bb-\
4G\	.	4G/	.	4d/	.	4b-\	.	4G\	-ra,	4B-\	-ra,	4d\	-ra,	4b-\	-ra,	4g\	.	4g\	.	4b-\	4dd\	4bb-\
4F\	.	4f\	.	4bn 4g\	.	4dd\	.	4F\	sub-	4Bn\	su-	4g\	su-	4dd\	su-	4f\	.	4g\	.	4g\	4dd\	4bbn\
=15	=15	=15	=15	=15	=15	=15	=15	=15	=15	=15	=15	=15	=15	=15	=15	=15	=15	=15	=15	=15	=15	=15
!LO:LB:g=original	!	!	!	!	!	!	!	!	!	!	!	!	!	!	!	!	!	!	!	!	!	!
*	*	*	*	*^	*	*	*	*	*	*	*	*	*	*	*	*	*	*	*	*	*	*
*	*	*	*	*	*2\right	*	*	*	*2\right	*	*2\right	*	*	*	*	*	*	*	*	*	*	*	*
(2F^\	.	(2f\	.	2bn/	2g\	.	(2dd\	.	2F\	-li-	(2Bn\	-bli-	[2g\	-bli-	(2dd\	-bli-	2f\	.	2g\	.	2g/	2dd\	(2bbn\
4E-\)	.	4e-\)	.	4cc/	2ryy	.	4ee-\)	.	4E-\	-mis,	4c\)	.	4g\]	-mis	4ee-\)	-mis	4e-\	.	4g\	.	4g/	4ee-\	4ccc\)
*	*	*	*	*	*	*	*	*	*	*	*	*	*	*ij	*	*ij	*	*	*	*	*	*	*
4D\	.	4d\	.	4b-X/	.	.	4ff\	.	4D\	sub-	4B-X\	-mis	4b-\	sub-	4ff\	sub-	4B-\	.	4f\	.	4f/	4ff\	4bb-X\
*	*	*	*	*v	*v	*	*	*	*	*	*	*	*	*	*	*	*	*	*	*	*	*	*
=16	=16	=16	=16	=16	=16	=16	=16	=16	=16	=16	=16	=16	=16	=16	=16	=16	=16	=16	=16	=16	=16	=16
!	!	!LO:LB:g=original	!	!	!	!	!	!	!	!	!	!	!	!	!	!	!	!	!	!	!	!
*	*	*	*	*	*	*	*	*	*	*	*ij	*	*	*	*	*	*	*	*	*	*	*
2E-^\	.	2e-\	.	2b-\	.	(2ff#X\	.	[2E-\	-li-	2B-\	su-	2b-\	-li-	2ff#X\	-li-	2e-\	.	2e-\	.	2f#X/	2ff#X\	[2bb-\
8E-\	.	4e-\	.	4b-\	.	4gg\)	.	4E-\]	.	4e-\	-bli-	2b-\	-mis	2gg\	-mis	4e-\	.	4e-\	.	4g/	4gg\	4bb-\]
*	*	*	*	*	*	*	*	*	*	*	*	*	*Xij	*	*Xij	*	*	*	*	*	*	*
!	!	!	!	!	!	!	!LO:DY:t=f.	!	!	!	!	!	!	!	!	!	!	!	!	!	!	!
8r	.	.	.	.	.	.	f	.	.	.	.	.	.	.	.	.	.	.	.	.	.	.
!	!	!	!	!	!LO:DY:t=f.	!	!	!	!	!	!	!	!	!	!	!	!	!	!	!	!	!
4E-\	.	4en\	.	4cc#X\	f	4gg 4b-\	.	4En\	-mis	4d-X\	-mis	.	.	.	.	4g\	p	4g\	p	4b-/	4gg\	4ccc#X\
*	*	*	*	*	*	*	*	*	*	*	*Xij	*	*	*	*	*	*	*	*	*	*	*
=17	=17	=17	=17	=17	=17	=17	=17	=17	=17	=17	=17	=17	=17	=17	=17	=17	=17	=17	=17	=17	=17	=17
!	!	!	!	!	!	!	!	!	!	!	!	!	!	!	!	!	!	!	!	!LO:LB:g=original	!LO:LB:g=original	!
4F\	.	4f\	.	8r	.	8r	.	4F\	in-	4.dn\	in-	4.b-\	in-	4.ffn\	in-	2f\	.	2f\	.	4.dd\	4.ff\	2ddd\
.	.	.	.	8dd\L	.	8ff\L	.	.	.	.	.	.	.	.	.	.	.	.	.	.	.	.
4F\	.	4F/	.	8dd\	.	8ff\	.	4F\	-ter	.	.	.	.	.	.	.	.	.	.	.	.	.
.	.	.	.	8b-\J	.	8dd\J	.	.	.	8B-\	-ter	8f\	-ter	8dd\	-ter	.	.	.	.	8b-\	8dd\	.
4F\	.	4F/	.	8r	.	8r	.	4F\	si-	4.A\	si-	4.cc\	si-	4.ff\	si-	2f\	.	2f\	.	4.a\	4.ee-\	2cccn\
.	.	.	.	8a/L	.	8ff\L	.	.	.	.	.	.	.	.	.	.	.	.	.	.	.	.
4F\	.	4F/	.	8a/	.	8ff\	.	4F\	-de-	.	.	.	.	.	.	.	.	.	.	.	.	.
.	.	.	.	8e-J 8c/	.	8a\J	.	.	.	8c\	-de-	8e-\	-de-	8a\	-de-	.	.	.	.	8e-\	8a\	.
=18	=18	=18	=18	=18	=18	=18	=18	=18	=18	=18	=18	=18	=18	=18	=18	=18	=18	=18	=18	=18	=18	=18
!	!	!	!	!	!	!	!	!LO:LB:g=original	!	!LO:LB:g=original	!	!	!	!	!	!LO:LB:g=original	!	!	!	!	!	!
4BB-/	.	4B-/	.	8d/	.	8b-\	.	2BB-/	-ra	2B-\	-ra.	2d\	-ra,	2b-\	-ra,	4B-/	.	4f\	.	8d/	8b-\	8bb-\
.	.	.	.	8d/L	.	8a\L	.	.	.	.	.	.	.	.	.	.	.	.	.	8d/L	8b-\L	8bb-\L
4BB-/	.	4B-/	.	8f/	.	8dd\	.	.	.	.	.	.	.	.	.	4B-/	.	4f\	.	8f/	8dd\	8ddd\
.	.	.	.	8e-/J	.	8cc\J	.	.	.	.	.	.	.	.	.	.	.	.	.	8e-/J	8cc\J	8ccc\J
4BB-/	.	4B-/	.	4d/	.	4b-\	.	2r	.	2r	.	4r	.	4r	.	4B-/	.	4f\	.	4d/	4b-\	4bb-\
4r	.	4r	.	4b-\	.	4dd\	p	.	.	.	.	4b-\	qui	4dd\	qui	4r	.	4r	.	4r	4r	4r
.	p	.	.	.	.	.	.	.	.	.	.	.	.	.	.	.	.	.	.	.	.	.
=19	=19	=19	=19	=19	=19	=19	=19	=19	=19	=19	=19	=19	=19	=19	=19	=19	=19	=19	=19	=19	=19	=19
!	!	!	!	!	!	!	!	!	!	!	!	!LO:LB:g=original	!	!	!	!	!	!LO:LB:g=original	!	!	!	!
!	!	!	!	!	!	!	!	!LO:TX:a:t=3.	!	!LO:TX:a:t=3.	!	!	!	!	!	!LO:TX:a:t=1	!	!LO:TX:a:t=1.	!	!LO:TX:a:t=1.	!LO:TX:a:t=1.	!LO:TX:a:t=1.
4F\	.	4F/	.	4a/	.	4cc\	.	0r	.	0r	.	4a\	te	4cc\	te	1r	.	1r	.	1r	1r	1r
4F\	.	4F/	.	4b-/	.	4dd\	.	.	.	.	.	4b-\	cre-	4dd\	cre-	.	.	.	.	.	.	.
4F\	.	4F/	.	4a/	.	4cc\	.	.	.	.	.	4a\	-a-	4cc\	-a-	.	.	.	.	.	.	.
4F\	.	4F/	.	4g/	.	4b-\	.	.	.	.	.	4g\	-vit	4b-\	-vit	.	.	.	.	.	.	.
=20	=20	=20	=20	=20	=20	=20	=20	=20	=20	=20	=20	=20	=20	=20	=20	=20	=20	=20	=20	=20	=20	=20
!	!	!	!	!	!	!LO:LB:g=original	!	!	!	!	!	!	!	!LO:LB:g=original	!	!	!	!	!	!	!	!LO:LB:g=original
4.F\	.	4.F/	.	4.f/	.	4.a\	.	.	.	.	.	4.f\	par-	4.a\	par-	4.f\	.	4.f\	.	4.a\	4.cc\	4.aa\
8F\	.	8F/	.	8f/	.	8a\	.	.	.	.	.	8f\	-vu-	8a\	-vu-	8f\	.	8f\	.	8a\	8cc\	8aa\
4F\	.	4F/	.	4f/	.	4a\	.	.	.	.	.	4f\	-lum	4a\	-lum	4f\	.	4f\	.	4a\	4cc\	4aa\
4F\	.	4F/	.	4a/	.	4cc\	.	.	.	.	.	4a\	lac-	4cc\	lac-	4r	.	4r	.	4r	4r	4r
=21	=21	=21	=21	=21	=21	=21	=21	=21	=21	=21	=21	=21	=21	=21	=21	=21	=21	=21	=21	=21	=21	=21
!LO:LB:g=original	!	!	!	!	!	!	!	!	!	!	!	!	!	!	!	!	!	!	!	!	!	!
!	!	!	!	!	!	!	!	!	!	!	!	!LO:SIC:l:s=-ten-:v	!	!LO:SIC:l:s=-ten-:v	!	!LO:TX:a:t=1.	!	!LO:TX:a:t=1.	!	!LO:TX:a:t=1	!LO:TX:a:t=1	!LO:TX:a:t=1.
4F\	.	4F/	.	4b-\	.	4dd\	.	1r	.	1r	.	4b-\	-tan-	4dd\	-tan-	1r	.	1r	.	1r	1r	1r
4F\	.	4F/	.	4a\	.	4cc\	.	.	.	.	.	4a\	-te	4cc\	-te	.	.	.	.	.	.	.
4F\	.	4F/	.	4b-\	.	4.dd\	.	.	.	.	.	4b-\	nut-	4dd\	nut-	.	.	.	.	.	.	.
4F\	.	4F/	.	4b- 4g\	.	.	.	.	.	.	.	4g\	-ris	4een\	-ris	.	.	.	.	.	.	.
.	.	.	.	.	.	8een\	.	.	.	.	.	.	.	.	.	.	.	.	.	.	.	.
=22	=22	=22	=22	=22	=22	=22	=22	=22	=22	=22	=22	=22	=22	=22	=22	=22	=22	=22	=22	=22	=22	=22
4.F\	.	4.F/	.	4.a\	.	4.ff\	.	2r	.	2r	.	4.a\	u-	4.ff\	u-	4.f\	.	4.f\	.	4a\	4cc\	4.fff\
.	.	.	.	.	.	.	.	.	.	.	.	.	.	.	.	.	.	.	.	4a\	4cc\	.
8F\	.	8F/	.	8a\	.	8ff\	.	.	.	.	.	8a\	-be-	8ff\	-be-	8f\	.	8f\	.	.	.	8fff\
4F\	.	4F/	.	4a\	.	4ff\	.	4r	.	4r	.	4a\	-re.	4ff\	-re	4f\	.	4f\	.	4a\	4cc\	4fff\
4F\	.	4F/	.	4b-\	.	4dd\	.	4B-\	qui	4d\	qui	4r	.	4r	.	4r	.	4r	.	4r	4r	4r
=23	=23	=23	=23	=23	=23	=23	=23	=23	=23	=23	=23	=23	=23	=23	=23	=23	=23	=23	=23	=23	=23	=23
!	!	!LO:LB:g=original	!	!LO:LB:g=original	!	!	!	!	!	!	!	!	!	!	!	!	!	!	!	!	!	!
!	!	!	!	!	!	!	!	!	!	!	!	!LO:TX:a:t=3.	!	!LO:TX:a:t=3.	!	!LO:TX:a:t=1.	!	!LO:TX:a:t=1.	!	!LO:TX:a:t=1.	!LO:TX:a:t=1	!LO:TX:a:t=1.
4F\	.	4F/	.	4a/	.	4cc\	.	4A\	te	4c\	te	0r	.	0r	.	1r	.	1r	.	1r	1r	1r
4F\	.	4F/	.	4b-/	.	4dd\	.	4B-\	cre-	4d\	cre-	.	.	.	.	.	.	.	.	.	.	.
4F\	.	4F/	.	4a/	.	4cc\	.	4A\	-a-	4c\	-a-	.	.	.	.	.	.	.	.	.	.	.
4F\	.	4F/	.	4g/	.	4b-\	.	4G\	-vit	4B-\	-vit	.	.	.	.	.	.	.	.	.	.	.
=24	=24	=24	=24	=24	=24	=24	=24	=24	=24	=24	=24	=24	=24	=24	=24	=24	=24	=24	=24	=24	=24	=24
4.F\	.	4.F/	.	4.f/	.	4.a\	.	4.F\	par-	4.A\	par-	.	.	.	.	4.f\	.	4.f\	.	4.a\	4.cc\	4.aa\
8F\	.	8F/	.	8f/	.	8a\	.	8F\	-vu-	8A\	-vu-	.	.	.	.	8f\	.	8f\	.	8a\	8cc\	8aa\
4F\	.	4F/	.	4f/	.	4a\	.	4F\	-lum	4A\	-lum	.	.	.	.	4f\	.	4f\	.	4a\	4cc\	4aa\
4F\	.	4F/	.	4a/	.	4cc\	.	4A\	lac-	4c\	lac-	.	.	.	.	4r	.	4r	.	4r	4r	4r
=25	=25	=25	=25	=25	=25	=25	=25	=25	=25	=25	=25	=25	=25	=25	=25	=25	=25	=25	=25	=25	=25	=25
!	!	!	!	!	!	!	!	!	!	!	!	!	!	!	!	!	!	!	!	!LO:LB:g=original	!LO:LB:g=original	!
!	!	!	!	!	!	!	!	!LO:SIC:l:s=-ten-:v	!	!LO:SIC:l:s=-ten-:v	!	!	!	!	!	!LO:TX:a:t=1.	!	!LO:TX:a:t=1.	!	!LO:TX:a:t=1.	!LO:TX:a:t=1.	!LO:TX:a:t=1.
4F\	.	4F/	.	4b-\	.	4dd\	.	4B-\	-tan-	4d\	-tan-	1r	.	1r	.	1r	.	1r	.	1r	1r	1r
4F\	.	4F/	.	4a\	.	4cc\	.	4A\	-te	4c\	-te	.	.	.	.	.	.	.	.	.	.	.
4F\	.	4F/	.	4b-\	.	4dd\	.	4B-\	nut-	4d\	nut-	.	.	.	.	.	.	.	.	.	.	.
4F\	.	4F/	.	4b- 4g\	.	4een\	.	4G\	-ris	4en\	-ris	.	.	.	.	.	.	.	.	.	.	.
=26	=26	=26	=26	=26	=26	=26	=26	=26	=26	=26	=26	=26	=26	=26	=26	=26	=26	=26	=26	=26	=26	=26
!	!	!	!	!	!	!	!	!LO:LB:g=original	!	!	!	!	!	!	!	!LO:LB:g=original	!	!	!	!	!	!
4.F\	.	4.F/	.	4.a/	.	4.ff\	.	4.A\	u-	4.f\	u-	2r	.	2r	.	4.f\	.	4.f\	.	4.a\	4.cc\	4.fff\
8F\	.	8F/	.	8a/	.	8ff\	.	8A\	-be-	8f\	-be-	.	.	.	.	8f\	.	8f\	.	8a\	8cc\	8fff\
4F\	.	4F/	.	4a/	.	4ff\	.	4A\	-re,	4f\	-re,	4r	.	4r	.	2f\	.	2f\	.	2a\	2cc\	2fff\
.	.	.	.	.	f	.	.	.	.	.	.	.	.	.	.	.	.	.	.	.	.	.
!	!LO:DY:t=f:	!	!	!	!	!	!LO:DY:t=f:	!	!	!	!	!	!	!	!	!	!	!	!	!	!	!
8F\L	f	8F/L	.	8aL 8f/	.	8ff\L	f	4F\	lac-	4c\	la-	4a\	lac-	4ff\	lac-	.	.	.	.	.	.	.
8F\J	.	8F/J	.	8aJ 8f/	.	8ff\J	.	.	.	.	.	.	.	.	.	.	.	.	.	.	.	.
=27	=27	=27	=27	=27	=27	=27	=27	=27	=27	=27	=27	=27	=27	=27	=27	=27	=27	=27	=27	=27	=27	=27
!	!	!	!	!	!	!LO:LB:g=original	!	!	!	!LO:LB:g=original	!	!LO:LB:g=original	!	!	!	!	!	!	!	!	!	!
!	!	!	!	!	!	!	!	!LO:SIC:l:s=-ten-:v	!	!LO:SIC:l:s=-ten-:v	!	!LO:SIC:l:s=-ten-:v	!	!LO:SIC:l:s=-ten-:v	!	!	!	!	!	!	!	!
*tremolo	*	*tremolo	*	*tremolo	*	*	*	*	*	*	*	*	*	*	*	*	*	*	*	*	*	*
8D\L	.	8d\L	.	8a/L	.	8ff\L	.	4D\	-tan-	4d\	-ctan-	4a\	-tan-	4ff\	-tan-	1f	.	1f	.	2a\	4ff\	1fff
8D\	.	8d\	.	8a/	.	8ff\	.	.	.	.	.	.	.	.	.	.	.	.	.	.	.	.
8D\	.	8d\	.	8a/	.	8dd\	.	4D\	-te	4f\	-te	4a\	-te	4dd\	-te	.	.	.	.	.	4dd\	.
8D\J	.	8d\J	.	8a/J	.	8dd\J	.	.	.	.	.	.	.	.	.	.	.	.	.	.	.	.
8D\L	.	8d\L	.	8f/L	.	8a\L	.	4D\	nut-	4f\	nut-	4f\	nut-	4a\	nut-	.	.	.	.	2f\	4b-\	.
8D\	.	8d\	.	8f/	.	8a\	.	.	.	.	.	.	.	.	.	.	.	.	.	.	.	.
8D\	.	8d\	.	8f/	.	8bn\	.	4D\	-ris	4f\	-ris	4f\	-ris	4bn\	-ris	.	.	.	.	.	4bX\	.
8D\J	.	8d\J	.	8f/J	.	8b\J	.	.	.	.	.	.	.	.	.	.	.	.	.	.	.	.
*	*	*	*	*Xtremolo	*	*	*	*	*	*	*	*	*	*	*	*	*	*	*	*	*	*
=28	=28	=28	=28	=28	=28	=28	=28	=28	=28	=28	=28	=28	=28	=28	=28	=28	=28	=28	=28	=28	=28	=28
!	!	!	!	!	!	!	!	!	!	!	!	!	!	!LO:LB:g=original	!	!	!	!LO:LB:g=original	!	!	!	!
8C/L	.	8c\L	.	8en/L	.	8cc\L	.	2.C\	u-	2en\	u-	2g\	u-	2.cc\	u-	2eX\	.	2g\	.	2g\	1cc	2eeen\
8C/	.	8c\	.	8c/	.	8en\	.	.	.	.	.	.	.	.	.	.	.	.	.	.	.	.
8C/	.	8c\	.	8e/	.	8g\	.	.	.	.	.	.	.	.	.	.	.	.	.	.	.	.
8C/J	.	8c\J	.	8f/J	.	[8cc\J	.	.	.	.	.	.	.	.	.	.	.	.	.	.	.	.
!	!	!	!	!	!	!	!	!	!	!	!	!LO:SIC:l:s=-be-:v	!	!	!	!	!	!LO:SIC:s=2an:v	!	!	!	!
8C/L	.	8c\L	.	8a-X/L	.	8cc\L]	.	.	.	2f\	-be-	2a-X\	-bi-	.	.	2f\	.	2a-\	.	2a-X\	.	2fff\
8C/	.	8c\	.	8c/	.	8f\	.	.	.	.	.	.	.	.	.	.	.	.	.	.	.	.
8C/	.	8c\	.	8f/	.	8a-X\	.	4C\	-be-	.	.	.	.	4cc\	-be-	.	.	.	.	.	.	.
8C/J	.	8c\J	.	8a-/J	.	[8cc\J	.	.	.	.	.	.	.	.	.	.	.	.	.	.	.	.
=29	=29	=29	=29	=29	=29	=29	=29	=29	=29	=29	=29	=29	=29	=29	=29	=29	=29	=29	=29	=29	=29	=29
!	!	!	!	!LO:LB:g=original	!	!	!	!	!	!	!	!	!	!	!	!	!	!	!	!	!	!LO:LB:g=original
*rep	*	*rep	*	*	*	*	*	*	*	*	*	*	*	*	*	*	*	*	*	*	*	*
8C/L	.	8c\L	.	8en/L	.	8cc\L]	.	2C\	-re	2en\	-re.	2g\	-re	2cc\	-re.	2.eX\	.	2.g\	.	2.g\	2.dd\	2.eeen\
8C/	.	8c\	.	8c/	.	8en\	.	.	.	.	.	.	.	.	.	.	.	.	.	.	.	.
8C/	.	8c\	.	8e/	.	8g\	.	.	.	.	.	.	.	.	.	.	.	.	.	.	.	.
8C/J	.	8c\J	.	8g/J	.	[8cc\J	.	.	.	.	.	.	.	.	.	.	.	.	.	.	.	.
8C/L	.	8c\L	.	8g/L	.	8cc\L]	.	2r	.	2r	.	2r	.	2r	.	.	.	.	.	.	.	.
8C/	.	8c\	.	8e/	.	8cc\	.	.	.	.	.	.	.	.	.	.	.	.	.	.	.	.
8C/	.	8c\	.	8d/	.	8bn\	.	.	.	.	.	.	.	.	.	4f\	.	4g\	.	4a\	4bX\	4ddd\
8C/J	.	8c\J	.	8f/J	.	8dd\J	.	.	.	.	.	.	.	.	.	.	.	.	.	.	.	.
*Xrep	*	*Xrep	*	*	*	*	*	*	*	*	*	*	*	*	*	*	*	*	*	*	*	*
=30	=30	=30	=30	=30	=30	=30	=30	=30	=30	=30	=30	=30	=30	=30	=30	=30	=30	=30	=30	=30	=30	=30
!	!	!	!	!	!	!	!	!LO:TX:a:t=2.	!	!LO:TX:a:t=10.	!	!LO:TX:a:t=10.	!	!LO:TX:a:t=2.	!	!	!	!	!	!	!	!
*rep	*	*	*	*	*	*	*	*	*	*	*	*	*	*	*	*	*	*	*	*	*	*
8C/L	.	8c\L	.	8en/L	.	8cc\L	.	0r	.	1r	.	1r	.	0r	.	2.eX\	.	2.g\	.	2.g\	2.cc\	2.eeen\
8C/	.	8c\	.	8c/	.	8en\	.	.	.	.	.	.	.	.	.	.	.	.	.	.	.	.
8C/	.	8c\	.	8e/	.	8g\	.	.	.	.	.	.	.	.	.	.	.	.	.	.	.	.
8C/J	.	8c\J	.	(8g/J	.	8cc\J	.	.	.	.	.	.	.	.	.	.	.	.	.	.	.	.
!	!	!	!	!	!	!LO:TX:a:t=P:problem=kasownik dopisany ołówkiem	!	!	!	!	!	!	!	!	!	!	!	!	!	!	!	!
8C/L	.	8c\L	.	8g/L	.	8een\L	.	.	.	.	.	.	.	.	.	.	.	.	.	.	.	.
8C/	.	8c\	.	8e/)	.	8cc\	.	.	.	.	.	.	.	.	.	.	.	.	.	.	.	.
8C/	.	8c\	.	8d/	.	8bn\	.	.	.	.	.	.	.	.	.	4f\	.	4g\	.	4a\	4bX\	4ddd\
8C/J	.	8c\J	.	8f/J	.	8dd\J	.	.	.	.	.	.	.	.	.	.	.	.	.	.	.	.
*Xrep	*	*	*	*	*	*	*	*	*	*	*	*	*	*	*	*	*	*	*	*	*	*
*Xtremolo	*	*Xtremolo	*	*	*	*	*	*	*	*	*	*	*	*	*	*	*	*	*	*	*	*
=31	=31	=31	=31	=31	=31	=31	=31	=31	=31	=31	=31	=31	=31	=31	=31	=31	=31	=31	=31	=31	=31	=31
4C/	.	4c\	.	8en/	.	8cc\	.	.	.	1r	.	1r	.	.	.	4eX\	.	4g\	.	8g/	8cc\	8ccc\
.	.	.	.	(8e/L	.	(8cc\L	.	.	.	.	.	.	.	.	.	.	.	.	.	8eX/L	8cc\L	8ccc\L
!	!	!	!	!	!	!LO:TX:a:t=P:problem=kasownik dopisany ołówkiem	!	!	!	!	!	!	!	!	!	!	!	!	!	!	!	!
4C/	.	4c\	.	8g/	.	8een\	.	.	.	.	.	.	.	.	.	4r	.	4r	.	8g/	8eeX\	8eeen\
.	.	.	.	8f/J	.	8dd\J)	.	.	.	.	.	.	.	.	.	.	.	.	.	8f/J	8dd\J	8ddd\J
4C/	.	4c\	.	8e/)	.	8cc\	.	.	.	.	.	.	.	.	.	4e\	.	4g\	.	8e/	8cc\	8ccc\
.	.	.	.	8e/L	.	(8cc\L	.	.	.	.	.	.	.	.	.	.	.	.	.	8e/L	8cc\L	8ccc\L
4C/	.	4c\	.	8g/	.	8ee\	.	.	.	.	.	.	.	.	.	4r	.	4r	.	8g/	8ee\	8eee\
.	.	.	.	8f/J	.	8dd\J)	.	.	.	.	.	.	.	.	.	.	.	.	.	8f/J	8dd\J	8ddd\J
=32	=32	=32	=32	=32	=32	=32	=32	=32	=32	=32	=32	=32	=32	=32	=32	=32	=32	=32	=32	=32	=32	=32
!	!	!	!	!	!	!LO:LB:g=original	!	!	!	!	!	!	!	!	!	!	!	!	!	!	!LO:LB:g=original	!
!	!	!	!	!	!	!LO:TX:a:t=P:problem=mixed beam	!	!	!	!	!	!	!	!	!	!	!	!	!	!	!	!
8C\L	.	8c\L	.	8en/L	.	8cc\L	.	2r	.	1r	.	1r	.	2r	.	4eX\	.	4g\	.	8eX/L	8cc\	8ccc\
8c\	.	8c\	.	8c/	.	8en/	.	.	.	.	.	.	.	.	.	.	.	.	.	8c/	8cc\L	8een\L
8c\	.	8c\	.	8d/	.	8f/	.	.	.	.	.	.	.	.	.	4r	.	4r	.	8c/	8dd\	8ff\
8c\J	.	8c\J	.	8e/J	.	8g/J	.	.	.	.	.	.	.	.	.	.	.	.	.	8c/J	8eeX\J	8gg\J
4F\	.	4F/	.	8f/	.	8a-X/	.	8r	.	.	.	.	.	8r	.	2r	.	2r	.	4F/	4ff\	4aa-X\
.	.	.	.	.	.	.	p	.	.	.	.	.	.	.	.	.	.	.	.	.	.	.
.	.	.	.	8f/L	.	8a-\L	.	8F\	Quod	.	.	.	.	8a-X\	Quod	.	.	.	.	.	.	.
!	!	!	!	!	!	!	!	!LO:SIC:l:s=He-:v	!	!	!	!	!	!	!	!	!	!	!	!	!	!
4r	.	4r	.	8a-X/	.	8cc\	.	8A-X\	Hae-	.	.	.	.	8cc\	He-	.	.	.	.	4r	4r	4r
.	.	.	.	8g/J	.	8b-\J	.	8G\	-va	.	.	.	.	8b-\	-va	.	.	.	.	.	.	.
=33	=33	=33	=33	=33	=33	=33	=33	=33	=33	=33	=33	=33	=33	=33	=33	=33	=33	=33	=33	=33	=33	=33
!	!	!	!	!	!	!	!	!	!	!	!	!	!	!	!	!LO:LB:g=original	!	!	!	!LO:LB:g=original	!	!
!	!	!	!	!	!	!	!	!	!	!	!	!	!	!	!	!LO:TX:a:t=16.	!	!LO:TX:a:t=16.	!	!LO:TX:a:t=7.	!LO:TX:a:t=7.	!LO:TX:a:t=7.
4F\	.	4F/	.	4f/	.	4a-X/	.	4F\	tris-	1r	.	1r	.	4a-X\	tris-	1r	.	1r	.	00r	00r	00r
4r	.	4r	.	4en/	.	4g/	.	4En\	-tis	.	.	.	.	4g\	-tis	.	.	.	.	.	.	.
4F\	.	4F/	.	4a-X/	.	4cc/	.	4A-X\	abs-	.	.	.	.	4cc\	abs-	.	.	.	.	.	.	.
4r	.	4r	.	4g/	.	4b-/	.	4G\	-tu-	.	.	.	.	4b-\	-tu-	.	.	.	.	.	.	.
=34	=34	=34	=34	=34	=34	=34	=34	=34	=34	=34	=34	=34	=34	=34	=34	=34	=34	=34	=34	=34	=34	=34
!LO:LB:g=original	!	!	!	!LO:LB:g=original	!	!	!	!	!	!	!	!	!	!	!	!	!	!	!	!	!	!
!LO:TX:a:t=P:problem=mixed beam	!	!	!	!	!	!	!	!	!	!	!	!	!	!	!	!	!	!	!	!	!	!
8F\L	.	8F/L	.	8f/L	.	8a-X/L	.	2F\	-lit,	1r	.	1r	.	2a-X\	-lit	1r	.	1r	.	.	.	.
8FF/	.	8F/	.	8a-X/	.	8cc/	.	.	.	.	.	.	.	.	.	.	.	.	.	.	.	.
8FF/	.	8F/	.	8g/	.	8b-/	.	.	.	.	.	.	.	.	.	.	.	.	.	.	.	.
8FF/J	.	8F/J	.	8f/J	.	8a-/J	.	.	.	.	.	.	.	.	.	.	.	.	.	.	.	.
4C/	.	4c\	.	8en/L	.	8g/L	.	8r	.	.	.	.	.	8r	.	.	.	.	.	.	.	.
.	.	.	.	8g/	.	8b-/	.	8G\	tu	.	.	.	.	8b-\	tu	.	.	.	.	.	.	.
4r	.	4r	.	8b-/	.	8dd-X/	.	8B-\	red-	.	.	.	.	8dd-X\	red-	.	.	.	.	.	.	.
.	.	.	.	8a-/J	.	8cc/J	.	8A-X\	-dis	.	.	.	.	8cc\	-dis	.	.	.	.	.	.	.
=35	=35	=35	=35	=35	=35	=35	=35	=35	=35	=35	=35	=35	=35	=35	=35	=35	=35	=35	=35	=35	=35	=35
!	!	!	!	!	!	!	!	!	!	!	!	!	!	!LO:LB:g=original	!	!	!	!	!	!	!	!
4C/	.	4c\	.	4g/	.	4b-/	.	4G\	al-	1r	.	1r	.	4b-\	al-	1r	.	1r	.	.	.	.
4r	.	4r	.	4f/	.	4a-X/	.	4F\	-mo	.	.	.	.	4a-X\	-mo	.	.	.	.	.	.	.
4C/	.	4c\	.	4en/	.	4g/	.	4En\	ger-	.	.	.	.	4g\	ger-	.	.	.	.	.	.	.
4r	.	4r	.	4d/	.	4f/	.	4D\	-mi-	.	.	.	.	4f\	-mi-	.	.	.	.	.	.	.
=36	=36	=36	=36	=36	=36	=36	=36	=36	=36	=36	=36	=36	=36	=36	=36	=36	=36	=36	=36	=36	=36	=36
!	!	!LO:LB:g=original	!	!	!	!	!	!LO:LB:g=original	!	!	!	!	!	!	!	!	!	!	!	!	!	!
4C/	.	4c\	.	(8c/L	.	(8en/L	.	2C/	-ne:	1r	.	1r	.	2en/	-ne:	1r	.	1r	.	.	.	.
.	.	.	.	8en/)	.	8g/)	.	.	.	.	.	.	.	.	.	.	.	.	.	.	.	.
4r	.	4r	.	8e/	.	8g/	.	.	.	.	.	.	.	.	.	.	.	.	.	.	.	.
.	.	.	.	8e/J	.	8g/J	.	.	.	.	.	.	.	.	.	.	.	.	.	.	.	.
4C/	.	(8c\L	.	(8e/L	.	8g/L	.	8En\L	in-	.	.	.	.	(8g\L	in-	.	.	.	.	.	.	.
.	.	8en\)	.	8g/)	.	8cc/	.	8C\J	.	.	.	.	.	8cc\J)	.	.	.	.	.	.	.	.
4r	.	8e'\	.	8g/	.	8cc/	.	8C/	-trent	.	.	.	.	8cc\	-trent	.	.	.	.	.	.	.
.	.	8e'\J	.	8g/J	.	8cc/J	.	8C/	ut	.	.	.	.	8cc\	ut	.	.	.	.	.	.	.
=37	=37	=37	=37	=37	=37	=37	=37	=37	=37	=37	=37	=37	=37	=37	=37	=37	=37	=37	=37	=37	=37	=37
4C/	.	8r	.	8r	.	8r	.	4.D\	as-	1r	.	1r	.	4.bn\	as-	1r	.	1r	.	0r	0r	0r
*	*	*	*	*	*	*tremolo	*	*	*	*	*	*	*	*	*	*	*	*	*	*	*	*
.	.	8d\L	.	8f/L	.	8bn\L	.	.	.	.	.	.	.	.	.	.	.	.	.	.	.	.
4r	.	8d\	.	8f/	.	8b\	.	.	.	.	.	.	.	.	.	.	.	.	.	.	.	.
.	.	8d\J	.	8f/J	.	8b\J	.	8D\	-tra	.	.	.	.	8b\	-tra	.	.	.	.	.	.	.
4C/	.	8r	.	8r	.	8r	.	4.En\	fle-	.	.	.	.	4.b-X\	fle-	.	.	.	.	.	.	.
.	.	8en\L	.	8g/L	.	8b-X\L	.	.	.	.	.	.	.	.	.	.	.	.	.	.	.	.
4r	.	8e\	.	8g/	.	8b-\	.	.	.	.	.	.	.	.	.	.	.	.	.	.	.	.
.	.	8e\J	.	8g/J	.	8b-\J	.	8E\	-bi-	.	.	.	.	8b-\	-bi-	.	.	.	.	.	.	.
=38	=38	=38	=38	=38	=38	=38	=38	=38	=38	=38	=38	=38	=38	=38	=38	=38	=38	=38	=38	=38	=38	=38
!	!	!	!	!	!	!LO:LB:g=original	!	!	!	!	!	!	!	!	!	!	!	!	!	!	!	!
4F\	.	8r	.	8r	.	8r	.	2F\	-les,	1r	.	1r	.	2a-X\	-les,	1r	.	1r	.	.	.	.
.	.	8f\L	.	8f/L	.	8a-X\L	.	.	.	.	.	.	.	.	.	.	.	.	.	.	.	.
4r	.	8f\	.	8f/	.	8a-\	.	.	.	.	.	.	.	.	.	.	.	.	.	.	.	.
.	.	8f\J	.	8f/J	.	8a-\J	.	.	.	.	.	.	.	.	.	.	.	.	.	.	.	.
4BB-/	.	4B-\	.	8r	.	8r	.	4G\	Cae-	.	.	.	.	4b-\	Cae-	.	.	.	.	.	.	.
.	.	.	.	8g/L	.	8b-\L	.	.	.	.	.	.	.	.	.	.	.	.	.	.	.	.
4r	.	4r	.	8a-X/	.	8cc\	.	8A-X\	-li	.	.	.	.	8.cc\	-li	.	.	.	.	.	.	.
.	.	.	.	8b-/J	.	8dd-X\J	.	8B-\	re-	.	.	.	.	.	.	.	.	.	.	.	.	.
.	.	.	.	.	.	.	.	.	.	.	.	.	.	16dd-X\	re-	.	.	.	.	.	.	.
*	*	*	*	*	*	*Xtremolo	*	*	*	*	*	*	*	*	*	*	*	*	*	*	*	*
=39	=39	=39	=39	=39	=39	=39	=39	=39	=39	=39	=39	=39	=39	=39	=39	=39	=39	=39	=39	=39	=39	=39
!	!	!	!	!LO:LB:g=original	!	!	!	!	!	!	!	!	!	!LO:LB:g=original	!	!	!	!	!	!	!	!
4C/	.	4c\	.	8r	.	8r	.	4A-X\	-clu-	1r	.	1r	.	4cc\	-clu-	1r	.	1r	.	1r	1r	1r
.	.	.	.	8a-X/L	.	8cc\L	.	.	.	.	.	.	.	.	.	.	.	.	.	.	.	.
4r	.	4r	.	8a-/	.	8a-X\	.	4F\	-dis	.	.	.	.	4a-X\	-dis	.	.	.	.	.	.	.
.	.	.	.	8f/J	.	8a-\J	.	.	.	.	.	.	.	.	.	.	.	.	.	.	.	.
4C/	.	4c\	.	8r	.	8r	.	4.En\	car-	.	.	.	.	4.g\	car-	.	.	.	.	.	.	.
.	.	.	.	8en/L	.	8g\L	.	.	.	.	.	.	.	.	.	.	.	.	.	.	.	.
4r	.	4r	.	8e/	.	8g\	.	.	.	.	.	.	.	.	.	.	.	.	.	.	.	.
.	.	.	.	8f/J	.	8a-\J	.	8F\	-di-	.	.	.	.	8a-\	-di-	.	.	.	.	.	.	.
=40	=40	=40	=40	=40	=40	=40	=40	=40	=40	=40	=40	=40	=40	=40	=40	=40	=40	=40	=40	=40	=40	=40
!LO:LB:g=original	!	!	!	!	!	!	!	!LO:LB:g=original	!	!	!	!	!	!	!	!	!	!	!	!	!	!
8F\L	.	8F\L	.	8c/	.	8f/	.	4F\	-nes	2r	.	2r	.	4f\	-nes.	1r	.	1r	.	8r	8r	8r
8c\	.	8c\	.	8c/L	.	8en/L	.	.	.	.	.	.	.	.	.	.	.	.	.	8c/L	8cc\L	8een\L
8c\	.	8c\	.	8d/	.	8f/	.	4r	.	.	.	.	.	4r	.	.	.	.	.	8c/	8dd\	8ff\
8c\J	.	8c\J	.	8en/J	.	8g/J	.	.	.	.	.	.	.	.	.	.	.	.	.	8c/J	8eeX\J	8gg\J
4F\	.	4F/	.	8f/	.	8a-X\	.	2r	.	8r	.	8r	.	2r	.	.	.	.	.	4F/	4ff\	4aa-X\
.	.	.	.	8f/L	.	8a-\L	.	.	.	8A-X\	Quod	8f\	Quod	.	.	.	.	.	.	.	.	.
!	!	!	!	!	!	!	!	!	!	!LO:SIC:l:s=He-:v	!	!	!	!	!	!	!	!	!	!	!	!
4r	.	4r	.	8a-X/	.	8cc\	.	.	.	8c\	Hae-	8a-X\	He-	.	.	.	.	.	.	4r	4r	4r
.	.	.	.	8g/J	.	8b-\J	.	.	.	8B-\	-va	8g\	-va	.	.	.	.	.	.	.	.	.
=41	=41	=41	=41	=41	=41	=41	=41	=41	=41	=41	=41	=41	=41	=41	=41	=41	=41	=41	=41	=41	=41	=41
!	!	!LO:LB:g=original	!	!	!	!	!	!	!	!	!	!	!	!	!	!	!	!	!	!	!	!
!	!	!	!	!	!	!	!	!LO:TX:a:t=8.	!	!	!	!	!	!LO:TX:a:t=7.	!	!	!	!	!	!LO:TX:a:t=7.	!LO:TX:a:t=7.	!LO:TX:a:t=7.
4F\	.	4F/	.	4f/	.	4a-X/	.	00r	.	4A-X\	tris-	4f\	tris-	00r	.	1r	.	1r	.	00r	00r	00r
4r	.	4r	.	4en/	.	4g/	.	.	.	4G\	-tis	4en\	-tis	.	.	.	.	.	.	.	.	.
4F\	.	4F/	.	4a-X/	.	4cc/	.	.	.	4c\	abs-	4a-X\	abs-	.	.	.	.	.	.	.	.	.
4r	.	4r	.	4g/	.	4b-/	.	.	.	4B-\	-tu-	4g\	-tu-	.	.	.	.	.	.	.	.	.
=42	=42	=42	=42	=42	=42	=42	=42	=42	=42	=42	=42	=42	=42	=42	=42	=42	=42	=42	=42	=42	=42	=42
!	!	!	!	!	!	!	!	!	!	!LO:LB:g=original	!	!LO:LB:g=original	!	!	!	!	!	!	!	!	!	!
!LO:TX:a:t=P:problem=mixed beam	!	!	!	!	!	!	!	!	!	!	!	!	!	!	!	!	!	!	!	!	!	!
8F\L	.	8F/L	.	8f/	.	8a-X\	.	.	.	2A-X\	-lit,	2f\	-lit,	.	.	1r	.	1r	.	.	.	.
8FF/	.	8F/	.	8a-X/L	.	8cc\L	.	.	.	.	.	.	.	.	.	.	.	.	.	.	.	.
8FF/	.	8F/	.	8g/	.	8b-\	.	.	.	.	.	.	.	.	.	.	.	.	.	.	.	.
8FF/J	.	8F/J	.	8f/J	.	8a-\J	.	.	.	.	.	.	.	.	.	.	.	.	.	.	.	.
4C/	.	4c\	.	8en/	.	8g\	.	.	.	8r	.	8r	.	.	.	.	.	.	.	.	.	.
.	.	.	.	8g/L	.	8b-\L	.	.	.	8B-\	tu	8g\	tu	.	.	.	.	.	.	.	.	.
4r	.	4r	.	8b-/	.	8dd-X\	.	.	.	8d-X\	red-	8b-\	red-	.	.	.	.	.	.	.	.	.
.	.	.	.	8a-X/J	.	8cc\J	.	.	.	8c\	-dis	8a-X\	-dis	.	.	.	.	.	.	.	.	.
=43	=43	=43	=43	=43	=43	=43	=43	=43	=43	=43	=43	=43	=43	=43	=43	=43	=43	=43	=43	=43	=43	=43
!	!	!	!	!	!	!LO:LB:g=original	!	!	!	!	!	!	!	!	!	!	!	!	!	!	!	!
4C/	.	4c\	.	4g/	.	4b-/	.	.	.	4B-\	al-	4g\	al-	.	.	1r	.	1r	.	.	.	.
4r	.	4r	.	4f/	.	4a-X/	.	.	.	4A-X\	-mo	4f\	-mo	.	.	.	.	.	.	.	.	.
4C/	.	4c\	.	4en/	.	4g/	.	.	.	4G\	ger-	4en\	ger-	.	.	.	.	.	.	.	.	.
4r	.	4r	.	4d/	.	4f/	.	.	.	4F\	-mi-	4d\	-mi-	.	.	.	.	.	.	.	.	.
=44	=44	=44	=44	=44	=44	=44	=44	=44	=44	=44	=44	=44	=44	=44	=44	=44	=44	=44	=44	=44	=44	=44
!	!	!	!	!LO:LB:g=original	!	!	!	!	!	!	!	!	!	!	!	!	!	!	!	!	!	!
4C/	.	4c\	.	(8c/L	.	(8en/L	.	.	.	2En/	-ne:	2c\	-ne:	.	.	1r	.	1r	.	.	.	.
.	.	.	.	8en/)	.	8g/)	.	.	.	.	.	.	.	.	.	.	.	.	.	.	.	.
4r	.	4r	.	8e'/	.	8g'/	.	.	.	.	.	.	.	.	.	.	.	.	.	.	.	.
.	.	.	.	8e'/J	.	8g'/J	.	.	.	.	.	.	.	.	.	.	.	.	.	.	.	.
4C/	.	(8c\L	.	(8e/L	.	(8g\L	.	.	.	(8G\L	in-	(8en\L	in-	.	.	.	.	.	.	.	.	.
.	.	8en\)	.	8g/)	.	8cc\)	.	.	.	8c\J)	.	8c\J)	.	.	.	.	.	.	.	.	.	.
4r	.	8e'\	.	8g'/	.	8cc'\	.	.	.	8c\	-trent	8c\	-trent	.	.	.	.	.	.	.	.	.
.	.	8e'\J	.	8g'/J	.	8cc'\J	.	.	.	8c\	ut	8c\	ut	.	.	.	.	.	.	.	.	.
=45	=45	=45	=45	=45	=45	=45	=45	=45	=45	=45	=45	=45	=45	=45	=45	=45	=45	=45	=45	=45	=45	=45
*rep	*	*	*	*	*	*	*	*	*	*	*	*	*	*	*	*	*	*	*	*	*	*
4C/	.	8r	.	8r	.	8r	.	00r	.	4.Bn\	as-	4.d\	as-	0r	.	1r	.	1r	.	0r	0r	0r
.	.	8d\L	.	8f/L	.	8bn\L	.	.	.	.	.	.	.	.	.	.	.	.	.	.	.	.
4r	.	8d\	.	8f/	.	8b\	.	.	.	.	.	.	.	.	.	.	.	.	.	.	.	.
.	.	8d\J	.	8f/J	.	8b\J	.	.	.	8B\	-tra	8d\	-tra	.	.	.	.	.	.	.	.	.
4C/	.	8r	.	8r	.	8r	.	.	.	4.B-X\	fle-	4.e-\	fle-	.	.	.	.	.	.	.	.	.
.	.	8en\L	.	8g/L	.	8b-X\L	.	.	.	.	.	.	.	.	.	.	.	.	.	.	.	.
4r	.	8e\	.	8g/	.	8b-\	.	.	.	.	.	.	.	.	.	.	.	.	.	.	.	.
.	.	8e\J	.	8g/J	.	8b-\J	.	.	.	8B-\	-bi-	8e-\	-bi-	.	.	.	.	.	.	.	.	.
*Xrep	*	*	*	*	*	*	*	*	*	*	*	*	*	*	*	*	*	*	*	*	*	*
=46	=46	=46	=46	=46	=46	=46	=46	=46	=46	=46	=46	=46	=46	=46	=46	=46	=46	=46	=46	=46	=46	=46
!LO:LB:g=original	!	!LO:LB:g=original	!	!	!	!	!	!	!	!LO:LB:g=original	!	!	!	!	!	!	!	!	!	!	!	!
4F\	.	8r	.	8r	.	8r	.	.	.	2A-X\	-les,	2f\	-les,	.	.	1r	.	1r	.	.	.	.
*	*	*	*	*	*	*tremolo	*	*	*	*	*	*	*	*	*	*	*	*	*	*	*	*
.	.	8f\L	.	8f/L	.	8a-\L	.	.	.	.	.	.	.	.	.	.	.	.	.	.	.	.
4r	.	8f\	.	8f/	.	8a-\	.	.	.	.	.	.	.	.	.	.	.	.	.	.	.	.
.	.	8f\J	.	8f/J	.	8a-\J	.	.	.	.	.	.	.	.	.	.	.	.	.	.	.	.
*	*	*	*	*	*	*Xtremolo	*	*	*	*	*	*	*	*	*	*	*	*	*	*	*	*
4BB-/	.	4B-/	.	8r	.	8r	.	.	.	4B-\	Cae-	4g\	Cae-	.	.	.	.	.	.	.	.	.
.	.	.	.	8f/L	.	8b-\L	.	.	.	.	.	.	.	.	.	.	.	.	.	.	.	.
4r	.	4r	.	8a-X/	.	8cc\	.	.	.	8c\	-li	8a-X\	-li	.	.	.	.	.	.	.	.	.
.	.	.	.	8b-/J	.	8dd-X\J	.	.	.	8d-X\	re-	8b-\	re-	.	.	.	.	.	.	.	.	.
=47	=47	=47	=47	=47	=47	=47	=47	=47	=47	=47	=47	=47	=47	=47	=47	=47	=47	=47	=47	=47	=47	=47
!	!	!	!	!	!	!	!	!	!	!	!	!LO:LB:g=original	!	!	!	!	!	!	!	!	!	!
4C/	.	4c\	.	8r	.	8r	.	.	.	4c\	-clu-	4a-X\	-clu-	1r	.	1r	.	1r	.	1r	1r	1r
.	.	.	.	8a-X/L	.	8cc\L	.	.	.	.	.	.	.	.	.	.	.	.	.	.	.	.
4r	.	4r	.	8f/	.	8a-X\	.	.	.	4A-X\	-dis	4f\	-dis	.	.	.	.	.	.	.	.	.
.	.	.	.	8f/J	.	8a-\J	.	.	.	.	.	.	.	.	.	.	.	.	.	.	.	.
4C/	.	4c\	.	8r	.	8r	.	.	.	4.G\	car-	4.en\	car-	.	.	.	.	.	.	.	.	.
.	.	.	.	8en/L	.	8g\L	.	.	.	.	.	.	.	.	.	.	.	.	.	.	.	.
4r	.	4r	.	8e/	.	8g\	.	.	.	.	.	.	.	.	.	.	.	.	.	.	.	.
.	.	.	.	8f/J	.	8a-\J	.	.	.	8A-\	-di-	8f\	-di-	.	.	.	.	.	.	.	.	.
=48	=48	=48	=48	=48	=48	=48	=48	=48	=48	=48	=48	=48	=48	=48	=48	=48	=48	=48	=48	=48	=48	=48
!	!	!	!	!	!	!LO:LB:g=original	!	!	!	!	!	!	!	!	!	!	!	!	!	!	!	!
8F\L	.	8F/L	.	8c/	.	8f/	.	.	.	4F/	-nes.	4f\	-nes.	2r	.	1r	.	1r	.	8r	8r	8r
8c\	.	8c/	.	8c/L	.	8en/L	.	.	.	.	.	.	.	.	.	.	.	.	.	8c/L	8cc\L	8een\L
8c\	.	8c/	.	8d/	.	8f/	.	.	.	4r	.	4r	.	.	.	.	.	.	.	8c/	8dd\	8ff\
8c\J	.	8c/J	.	8en/J	.	8g/J	.	.	.	.	.	.	.	.	.	.	.	.	.	8c/J	8eeX\J	8gg\J
4F\	.	4F/	.	8f/	.	8an/	.	.	.	8r	.	2r	.	8r	.	.	.	.	.	4F/	8ff\	8aan\
.	.	.	.	8f/L	.	(8a/L	.	.	.	8F/	Tu	.	.	8an\	Tu	.	.	.	.	.	8ff\L	8aa\L
4r	.	4r	.	8an/	.	8cc/	.	.	.	8A/	re-	.	.	8cc\	re-	.	.	.	.	4r	8aa\	8ccc\
.	.	.	.	8g/J	.	8b-/J)	.	.	.	8G/	-gis	.	.	8b-\	-gis	.	.	.	.	.	8gg\J	8bb-\J
=49	=49	=49	=49	=49	=49	=49	=49	=49	=49	=49	=49	=49	=49	=49	=49	=49	=49	=49	=49	=49	=49	=49
!	!	!	!	!LO:LB:g=original	!	!	!	!	!	!	!	!	!	!	!	!	!	!	!	!	!	!
!	!	!	!	!	!	!	!	!	!	!	!	!	!	!	!	!	!	!	!	!LO:TX:a:t=1.	!	!
8r	.	8r	.	4f/	.	4a\	.	8r	.	4F/	al-	8r	.	4a\	al-	8r	.	8r	.	1r	4ff\	4aa\
8F\L	.	8F/L	.	.	.	.	.	8F\	Tu	.	.	8f\	Tu	.	.	8f\L	.	8f\L	.	.	.	.
8F\	.	8F/	.	4g/	.	4b-\	.	8F\	re-	4G/	-ti	8f\	re-	4b-\	-ti	8f\	.	8f\	.	.	4gg\	4bb-\
8F\J	.	8F/J	.	.	.	.	.	8F\	-gis	.	.	8f\	-gis	.	.	8f\J	.	8f\J	.	.	.	.
4F\	.	4F/	.	4a/	.	4cc\	.	4F\	al-	4A/	ja-	4f\	al-	4cc\	ja-	4f\	.	4f\	.	.	4aa\	4ccc\
4F\	.	4F/	.	4b-/	.	4dd\	.	4F\	-ti	4B-/	-nu-	4f\	-ti	4dd\	-nu-	4f\	.	4f\	.	.	4bb-\	4ddd\
=50	=50	=50	=50	=50	=50	=50	=50	=50	=50	=50	=50	=50	=50	=50	=50	=50	=50	=50	=50	=50	=50	=50
!	!	!	!	!	!	!	!	!	!	!	!	!	!	!LO:LB:g=original	!	!	!	!	!	!	!	!
8F\L	.	8F/L	.	2a/	.	2cc\	.	8F\L	ja-	2A\	-a,	4f\	ja-	2cc\	-a,	2f\	.	2f\	.	2r	2aa\	2ccc\
8A\	.	8A/	.	.	.	.	.	8A\J	.	.	.	.	.	.	.	.	.	.	.	.	.	.
8c\	.	8c/	.	.	.	.	.	8c\L	-nu-	.	.	8a\L	-nu-	.	.	.	.	.	.	.	.	.
8A\J	.	8A/J	.	.	.	.	.	8A\J	.	.	.	8f\J	.	.	.	.	.	.	.	.	.	.
4F\	.	4F/	.	8r	.	8r	.	4F\	-a.	8r	.	4d\	-a	8r	.	4f\	.	4f\	.	8r	8r	8r
.	.	.	.	8a/L	.	8cc\L	.	.	.	8A\	et	.	.	8cc\	et	.	.	.	.	8a\L	8cc\L	8ccc\L
!	!	!	!	!	!	!LO:TX:a:t=P:problem=bemol dopisany ołówkiem	!	!	!	!	!	!	!	!	!	!	!	!	!	!	!	!
4r	.	4r	.	8cc/	.	8ee-X\	.	4r	.	8c\	au-	4r	.	8ee-\	au-	4r	.	4r	.	8cc\	8ee-\	8eee-\
.	.	.	.	8b-/J	.	8dd\J	.	.	.	8B-\	-la	.	.	8dd\	-la	.	.	.	.	8b-\J	8dd\J	8ddd\J
=51	=51	=51	=51	=51	=51	=51	=51	=51	=51	=51	=51	=51	=51	=51	=51	=51	=51	=51	=51	=51	=51	=51
!LO:LB:g=original	!	!	!	!	!	!	!	!	!	!LO:LB:g=original	!	!LO:LB:g=original	!	!	!	!	!	!LO:LB:g=original	!	!	!LO:LB:g=original	!
8r	.	8r	.	4a/	.	4cc\	.	8r	.	4A\	lu-	8r	.	4cc\	lu-	8r	.	8r	.	4a\	4cc\	4ccc\
8F\L	.	8F/L	.	.	.	.	.	8F\	et	.	.	8f\	et	.	.	8f\L	.	8f\L	.	.	.	.
8F\	.	8F/	.	4b-/	.	4dd\	.	8F\	au-	4B-\	-cis	8f\	au-	4dd\	-cis	8f\	.	8f\	.	4b-\	4dd\	4ddd\
8F\J	.	8F/J	.	.	.	.	.	8F\	-la	.	.	8f\	-la	.	.	8f\J	.	8f\J	.	.	.	.
4F\	.	4F/	.	4cc/	.	4ee-\	.	4F\	lu-	4c\	ful-	4f\	lu-	4ee-\	ful-	4f\	.	4f\	.	4cc\	4ee-\	4eee-\
4F\	.	4F/	.	4a/	.	4ff\	.	4F\	-cis	4A\	-gi-	4f\	-cis	4ff\	-gi-	4f\	.	4f\	.	4a\	4ff\	4fff\
=52	=52	=52	=52	=52	=52	=52	=52	=52	=52	=52	=52	=52	=52	=52	=52	=52	=52	=52	=52	=52	=52	=52
!	!	!LO:LB:g=original	!	!	!	!	!	!	!	!	!	!	!	!	!	!	!	!	!	!	!	!
!	!	!	!	!	!	!	!	!	!	!	!	!	!	!	!	!LO:SIC:2An:v	!	!	!	!	!	!
8BB-/L	.	8B-\L	.	2b-\	.	2dd\	.	8BB-/L	ful-	2A\	-da:	4f\	ful-	2dd\	-da:	2A-/	.	2f\	.	2b-\	2dd\	2ddd\
8D/	.	8d\	.	.	.	.	.	8D/J	.	.	.	.	.	.	.	.	.	.	.	.	.	.
8F/	.	8f\	.	.	.	.	.	8F\	-gi-	.	.	8d\L	-gi-	.	.	.	.	.	.	.	.	.
8D/J	.	8d\J	.	.	.	.	.	8D\	-da	.	.	8B-\J	.	.	.	.	.	.	.	.	.	.
*tremolo	*	*	*	*	*	*	*	*	*	*	*	*	*	*	*	*	*	*	*	*	*	*
8BB-/L	.	8B-\L	.	8r	.	8r	.	4BB-/	vi-	4f\	Vi-	4a-X\	da,	4dd\	Vi-	2BB-/	.	2B-/	.	2f\	2aa-X\	2ddd\
8BB-/	.	8f\	.	8a-X\L	.	8dd\L	.	.	.	.	.	.	.	.	.	.	.	.	.	.	.	.
8BB-/	.	8f\	.	8a-\	.	8dd\	.	4BB-/	-tam	4f\	-tam	4a-\	vi-	4dd\	-tam	.	.	.	.	.	.	.
8BB-/J	.	8f\J	.	8a-\J	.	8dd\J	.	.	.	.	.	.	.	.	.	.	.	.	.	.	.	.
=53	=53	=53	=53	=53	=53	=53	=53	=53	=53	=53	=53	=53	=53	=53	=53	=53	=53	=53	=53	=53	=53	=53
!	!	!	!	!	!	!	!	!	!	!	!	!	!	!	!	!	!	!	!	!LO:LB:g=original	!	!
8BB-/L	.	8B-\L	.	8r	.	8r	.	4BB-/	per	4e-\	da-	4g\	-tam	4ee-\	da-	1BB-	.	1B-	.	2g/	2gg\	2eee-\
8BB-/	.	8e-\	.	8g/L	.	8ee-\L	.	.	.	.	.	.	.	.	.	.	.	.	.	.	.	.
8BB-/	.	8e-\	.	8g/	.	8ee-\	.	8BB-/	Vir-	8e-\	-tam	8g\	da-	8ee-\	-tam	.	.	.	.	.	.	.
8BB-/J	.	8e-\J	.	8g/J	.	8ee-\J	.	8BB-/	-gi-	8e-\	per	8g\	-tam	8ee-\	per	.	.	.	.	.	.	.
*	*	*tremolo	*	*	*	*	*	*	*	*	*	*	*	*	*	*	*	*	*	*	*	*
8BB-/L	.	8c\L	.	8r	.	8r	.	4BB-/	-nem	4c\	Vir-	4an\	per	4ee-\	Vir-	.	.	.	.	2an\	2ee-\	2ccc\
8BB-/	.	8c\	.	8an/L	.	8ee-\L	.	.	.	.	.	.	.	.	.	.	.	.	.	.	.	.
8BB-/	.	8c\	.	8a/	.	8ee-\	.	4BB-/	gen-	4c\	-gi-	4a\	Vir-	4ee-\	-gi-	.	.	.	.	.	.	.
8BB-/J	.	8c\J	.	8a/J	.	8ee-\J	.	.	.	.	.	.	.	.	.	.	.	.	.	.	.	.
*Xtremolo	*	*Xtremolo	*	*	*	*	*	*	*	*	*	*	*	*	*	*	*	*	*	*	*	*
=54	=54	=54	=54	=54	=54	=54	=54	=54	=54	=54	=54	=54	=54	=54	=54	=54	=54	=54	=54	=54	=54	=54
!	!	!	!	!	!	!LO:LB:g=original	!	!LO:LB:g=original	!	!	!	!	!	!LO:LB:g=original	!	!	!	!	!	!	!	!
4BB-/	.	4B-\	.	8r	.	8r	.	2BB-/	-tes	2d\	-nem,	2b-\	-gi-	2dd\	-nem,	2BB-/	.	2B-/	.	2b-\	2dd\	2ddd\
.	.	.	.	8b-\L	.	8dd\L	.	.	.	.	.	.	.	.	.	.	.	.	.	.	.	.
4r	.	4r	.	8b-\	.	8dd\	.	.	.	.	.	.	.	.	.	.	.	.	.	.	.	.
.	.	.	.	8b-\J	.	8dd\J	.	.	.	.	.	.	.	.	.	.	.	.	.	.	.	.
4E-\	.	4e-\	.	8r	.	8r	.	4E-\	re-	4c\	gen-	4g\	-nem	4ee-\	gen-	4e-\	.	4g\	.	4ee-\	4gg\	4eee-\
.	.	.	.	8cc\L	.	8ee-\L	.	.	.	.	.	.	.	.	.	.	.	.	.	.	.	.
4r	.	4r	.	8dd\	.	8ff\	.	8E-\	-demp-	8d\	-tes	8g\	gentes	8.ff\	-tes	4r	.	4r	.	4r	4r	4r
.	.	.	.	8ee-\J	.	8gg\J	.	8E-\	-tae	8e-\	re-	8g\	re-	.	.	.	.	.	.	.	.	.
.	.	.	.	.	.	.	.	.	.	.	.	.	.	16gg\	re-	.	.	.	.	.	.	.
=55	=55	=55	=55	=55	=55	=55	=55	=55	=55	=55	=55	=55	=55	=55	=55	=55	=55	=55	=55	=55	=55	=55
!	!	!	!	!LO:LB:g=original	!	!	!	!	!	!	!	!LO:LB:g=original	!	!	!	!LO:LB:g=original	!	!	!	!	!	!LO:LB:g=original
4F\	.	4f\	.	8r	.	8r	.	4F\	plau-	4d\	-demp-	4b-\	-demp-	4ff\	-demp-	4f\	.	4f\	.	4dd\	4ff\	4fff\
.	.	.	.	8dd\L	.	8ff\L	.	.	.	.	.	.	.	.	.	.	.	.	.	.	.	.
4r	.	4r	.	8b-\	.	8dd\	.	4F\	.	4B-\	-tae	4f\	-tae	4dd\	-tae	4r	.	4r	.	4r	4r	4r
.	.	.	.	8b-\J	.	8dd\J	.	.	.	.	.	.	.	.	.	.	.	.	.	.	.	.
4F\	.	4f\	.	8r	.	8r	.	4F\	.	4.A\	plau-	4.f\	plau-	4.cc\	plau-	4f\	.	4f\	.	4cc\	4ee-\	4eee-\
.	.	.	.	8a\L	.	8cc\L	.	.	.	.	.	.	.	.	.	.	.	.	.	.	.	.
4r	.	4r	.	8a\	.	8cc\	.	4F\	-di-	.	.	.	.	.	.	4r	.	4r	.	4r	4r	4r
.	.	.	.	8cc\J	.	8ee-\J	.	.	.	8c\	-di-	8a\	-di-	8ee-\	-di-	.	.	.	.	.	.	.
=56	=56	=56	=56	=56	=56	=56	=56	=56	=56	=56	=56	=56	=56	=56	=56	=56	=56	=56	=56	=56	=56	=56
!	!	!	!	!	!	!	!	!	!	!LO:LB:g=original	!	!	!	!	!	!	!	!	!	!	!	!
!	!	!	!	!	!	!	!	!LO:SIC:l:s=-te:v	!	!	!	!	!	!	!	!	!	!LO:TX:a:t=P:problem=fermata nad półnutą i ćwierćnutą	!	!LO:TX:a:t=P:problem=fermata nad półnutą i ćwierćnutą	!	!
2G;\	.	2g;\	.	2b-;\	.	2dd;\	.	2G;\	-tae	2B-;\	-te,	2b-;\	-te	2dd;\	-te.	2g;\	.	2g;\	.	2b-;\	2dd;\	2ddd;\
4E-\	.	4e-\	.	8r	.	8r	.	4E-\	gen-	4c\	gen-	4g\	gen-	4ee-\	gen-	4e-\	.	4g\	.	4ee-\	4gg\	4ggg\
.	.	.	.	8cc\L	.	8ee-\L	.	.	.	.	.	.	.	.	.	.	.	.	.	.	.	.
4r	.	4r	.	8dd\	.	8ff\	.	8E-\	-tes	8d\	-tes	8g\	-tes	8ff\	-tes	4r	.	4r	.	4r	4r	4r
.	.	.	.	8ee-\J	.	8gg\J	.	8E-\	re-	8e-\	re-	8g\	re-	8gg\	re-	.	.	.	.	.	.	.
=57	=57	=57	=57	=57	=57	=57	=57	=57	=57	=57	=57	=57	=57	=57	=57	=57	=57	=57	=57	=57	=57	=57
!LO:LB:g=original	!	!	!	!	!	!	!	!	!	!	!	!	!	!	!	!	!	!	!	!	!	!
4F\	.	4f\	.	8r	.	8r	.	4F\	-demp-	4d\	-demp-	4b-\	-demp-	4ff\	-demp-	4f\	.	4f\	.	4dd\	4ff\	4fff\
.	.	.	.	8dd\L	.	8ff\L	.	.	.	.	.	.	.	.	.	.	.	.	.	.	.	.
4r	.	4r	.	8b-\	.	8dd\	.	4F\	-tae	4B-\	-tae	4f\	-tae	4dd\	-tae	4r	.	4r	.	4r	4r	4r
.	.	.	.	8b-\J	.	8dd\J	.	.	.	.	.	.	.	.	.	.	.	.	.	.	.	.
4F\	.	4f\	.	8r	.	8r	.	4F\	plau-	4.A\	plau-	4.f\	plau-	4.cc\	plau-	4f\	.	4f\	.	4a\	4ee-\	4ccc\
.	.	.	.	8a\L	.	8cc\L	.	.	.	.	.	.	.	.	.	.	.	.	.	.	.	.
4r	.	4r	.	8a\	.	8cc\	.	4F\	-di-	.	.	.	.	.	.	4r	.	4r	.	4r	4r	4r
.	.	.	.	8b-\J	.	8dd\J	.	.	.	8B-\	-di-	8f\	-di-	8dd\	-di-	.	.	.	.	.	.	.
=58	=58	=58	=58	=58	=58	=58	=58	=58	=58	=58	=58	=58	=58	=58	=58	=58	=58	=58	=58	=58	=58	=58
!	!	!LO:LB:g=original	!	!	!	!	!	!LO:LB:g=original	!	!	!	!	!	!LO:LB:g=original	!	!	!	!LO:LB:g=original	!	!	!LO:LB:g=original	!
!	!	!	!LO:DY:rj	!	!	!	!LO:DY:rj	!LO:SIC:l:s=-te:v	!	!LO:SIC:l:s=-te:v	!	!LO:SIC:l:s=-te:v	!	!	!	!	!	!	!	!	!	!
4BB-/	.	4B-\	f	4d/	.	4b-\	f	2BB-/	-tae	2B-\	-tae.	2d\	-tae	2b-\	-te.	4B-/	.	4f\	.	4b-\	4dd\	4bb-\
.	.	.	.	.	f	.	.	.	.	.	.	.	.	.	.	.	.	.	.	.	.	.
8B-\L	.	8B-\L	.	8b-\L	.	8b-\L	.	.	.	.	.	.	.	.	.	8B-/L	.	8B-\L	.	8b-\L	8b-\L	8bb-\L
8c\J	.	8c\J	.	8cc\J	.	8cc\J	.	.	.	.	.	.	.	.	.	8c/J	.	8c\J	.	8cc\J	8cc\J	8ccc\J
4d\	.	4d\	.	4dd\	.	4dd\	.	2r	.	2r	.	2r	.	2r	.	4d/	.	4d\	.	4dd\	4dd\	4ddd\
8B-\L	.	8B-\L	.	8b-L 8g/	.	8b-\L	.	.	.	.	.	.	.	.	.	4r	.	4r	.	8b-\L	8b-\L	8bb-\L
8G\J	.	8G\J	.	8g/J	.	8g\J	.	.	.	.	.	.	.	.	.	.	.	.	.	8g\J	8g\J	8gg\J
.	p	.	.	.	.	.	.	.	.	.	.	.	.	.	.	.	.	.	.	.	.	.
=59	=59	=59	=59	=59	=59	=59	=59	=59	=59	=59	=59	=59	=59	=59	=59	=59	=59	=59	=59	=59	=59	=59
!	!	!	!LO:DY:rj	!	!LO:DY:rj	!	!LO:DY:a	!	!	!	!	!	!	!	!	!LO:TX:a:t=1	!	!LO:TX:a:t=1.	!	!LO:TX:a:t=1	!LO:TX:a:t=1.	!
4F#X\	.	(4F#X/	p	8a 8d/	p	8dd 8d\	p	1F#X	Je-	1d	Je-	1a	Je-	1dd	Je-	1r	.	1r	.	1r	1r	1r
.	.	.	.	4a 4d/	.	4dd 4d\	.	.	.	.	.	.	.	.	.	.	.	.	.	.	.	.
4A\	.	4G/	.	.	.	.	.	.	.	.	.	.	.	.	.	.	.	.	.	.	.	.
.	.	.	.	4a 4d/	.	4dd 4d\	.	.	.	.	.	.	.	.	.	.	.	.	.	.	.	.
4D\	.	4D/	.	.	.	.	.	.	.	.	.	.	.	.	.	.	.	.	.	.	.	.
.	.	.	.	4a 4d/	.	4dd 4d\	.	.	.	.	.	.	.	.	.	.	.	.	.	.	.	.
4F#\	.	4F#/)	.	.	.	.	.	.	.	.	.	.	.	.	.	.	.	.	.	.	.	.
.	.	.	.	8a 8d/	.	8dd 8d\	.	.	.	.	.	.	.	.	.	.	.	.	.	.	.	.
.	.	.	.	.	f	.	.	.	.	.	.	.	.	.	.	.	.	.	.	.	.	.
=60	=60	=60	=60	=60	=60	=60	=60	=60	=60	=60	=60	=60	=60	=60	=60	=60	=60	=60	=60	=60	=60	=60
!	!	!	!	!	!	!LO:LB:g=original	!	!	!	!	!	!	!	!	!	!	!	!	!	!	!	!
!	!	!	!LO:DY:rj	!	!	!	!LO:DY:a	!	!	!	!	!	!	!	!	!	!	!	!	!	!	!
4G\	.	4G/	f	4g/	.	4b- 4d\	f	2G\	-su	2d\	-su	2g\	-su	2b-\	-su	4r	.	4r	.	4r	4r	4r
8G\L	.	8G/L	.	8g/L	.	8g\L	.	.	.	.	.	.	.	.	.	8G/L	.	8G/L	.	8f/L	8g/L	8gg\L
8qqB-/	.	.	.	.	.	.	.	.	.	.	.	.	.	.	.	.	.	.	.	.	.	.
!	!	!	!	!	!	!	!	!	!	!	!	!	!	!	!	!LO:SIC:s=8An:v	!	!LO:SIC:s=8An:v	!	!	!	!
8A\J	.	8A/J	.	8a/J	.	8a\J	.	.	.	.	.	.	.	.	.	8A-/J	.	8A-/J	.	8g/J	8a/J	8aa\J
4B-\	.	4B-/	.	4b-/	.	4b-\	.	2r	.	2r	.	2r	.	2r	.	4B-/	.	4B-/	.	4a\	4b-/	4bb-\
8G\L	.	8G/L	.	8g/L	.	8g\L	.	.	.	.	.	.	.	.	.	4r	.	4r	.	8g/L	8g/L	8gg\L
8E-\J	.	8E-/J	.	8e-/J	.	8e-\J	.	.	.	.	.	.	.	.	.	.	.	.	.	8e-/J	8e-/J	8ee-\J
=61	=61	=61	=61	=61	=61	=61	=61	=61	=61	=61	=61	=61	=61	=61	=61	=61	=61	=61	=61	=61	=61	=61
!	!	!	!	!LO:LB:g=original	!	!	!	!	!	!	!	!LO:LB:g=original	!	!	!	!	!	!	!	!LO:LB:g=original	!	!
!	!	!	!LO:DY:rj	!	!LO:DY:rj	!	!	!	!	!	!	!	!	!	!	!LO:TX:a:t=1.	!	!LO:TX:a:t=1.	!	!LO:TX:a:t=1.	!LO:TX:a:t=1.	!LO:TX:a:t=1.
4C\	.	4C/	p	8cc 8e-\	p	8ee- 8g\	p	1C	Je-	1c	Je-	1g	Je-	1ee-	Je-	1r	.	1r	.	1r	1r	1r
.	.	.	.	4cc 4e-\	.	4ee- 4g\	.	.	.	.	.	.	.	.	.	.	.	.	.	.	.	.
4G\	.	(4G/	.	.	.	.	.	.	.	.	.	.	.	.	.	.	.	.	.	.	.	.
.	.	.	.	4cc 4e-\	.	4ee- 4g\	.	.	.	.	.	.	.	.	.	.	.	.	.	.	.	.
4E-\	.	4E-/)	.	.	.	.	.	.	.	.	.	.	.	.	.	.	.	.	.	.	.	.
.	.	.	.	4cc 4e-\	.	4ee- 4g\	.	.	.	.	.	.	.	.	.	.	.	.	.	.	.	.
4C\	.	4C/	.	.	.	.	.	.	.	.	.	.	.	.	.	.	.	.	.	.	.	.
.	.	.	.	8cc 8e-\	.	8ee- 8g\	.	.	.	.	.	.	.	.	.	.	.	.	.	.	.	.
=62	=62	=62	=62	=62	=62	=62	=62	=62	=62	=62	=62	=62	=62	=62	=62	=62	=62	=62	=62	=62	=62	=62
!	!	!	!	!	!	!	!LO:DY:rj	!	!	!	!	!	!	!	!	!	!	!	!	!	!	!
4F\	.	4F/	.	4a\	.	4cc 4f\	f	4F\	-su	4c\	-su	4a\	-su	4cc\	-su	4r	.	4r	.	4r	4r	4r
8FF/L	.	8F/L	.	8a\L	.	8ff\L	.	8F\L	ti-	4c\	ti-	8a\L	ti-	8ff\L	.	8f\L	.	8f\L	.	8a\L	8ff\L	8fff\L
8GG/J	.	8G/J	.	8b-\J	.	8een\J	.	8G\J	.	.	.	8b-\J	.	8een\J	ti-	8g\J	.	8g\J	.	8b-\J	8eeX\J	8eeen\J
4AA/	.	4A/	.	4cc\	.	4ee-X\	.	4A\	-bi	4c\	-bi	4f\	-bi	4ee-X\	-bi	4f\	.	4f\	.	4cc\	4ee-\	4eee-X\
8BB-/L	.	8B-/L	.	4b- 4f\	.	4dd\	.	4B-\	sit	4d\	sit	4f\	sit	4dd\	sit	4B-\	.	4f 4B-\	.	4b-\	4dd\	4ddd\
8D/J	.	8d/J	.	.	.	.	.	.	.	.	.	.	.	.	.	.	.	.	.	.	.	.
=63	=63	=63	=63	=63	=63	=63	=63	=63	=63	=63	=63	=63	=63	=63	=63	=63	=63	=63	=63	=63	=63	=63
!LO:LB:g=original	!	!LO:LB:g=original	!	!	!	!	!	!	!	!LO:LB:g=original	!	!	!	!	!	!	!	!	!	!	!	!
4F\	.	4f\	.	4.a\	.	(4.cc\	.	4.F\	glo-	4.A\	glo-	4.f\	glo-	4.cc\	glo-	4.f\	.	4.f\	.	4.a\	4.cc\	4.ccc\
4F\	.	4f\	.	.	.	.	.	.	.	.	.	.	.	.	.	.	.	.	.	.	.	.
.	.	.	.	8b-\	.	8dd\	.	8F\	-ri-	8B-\	-ri-	8f\	-ri-	8dd\	-ri-	8f\	.	8f\	.	8b-\	8dd\	8ddd\
4F\	.	4f\	.	8a\	.	8cc\)	.	4F\	-a	8A\	-a	8f\	-a	8cc\	-a	2f\	.	2f\	.	8a\	8cc\	8ccc\
.	.	.	.	8b-\L	.	8dd\L	.	.	.	8B-\	qui	8f\	qui	8dd\	qui	.	.	.	.	8b-\L	8dd\L	8ddd\L
4F\	.	4f\	.	8cc\	.	8ee-\	.	4F\	qui	8c\	na-	8f\	na-	8ee-\	na-	.	.	.	.	8cc\	8ee-\	8eee-\
.	.	.	.	8b-\J	.	8dd\J	.	.	.	8B-\	-tus	8f\	-tus	8dd\	-tus	.	.	.	.	8b-\J	8dd\J	8ddd\J
=64	=64	=64	=64	=64	=64	=64	=64	=64	=64	=64	=64	=64	=64	=64	=64	=64	=64	=64	=64	=64	=64	=64
!	!	!	!	!	!	!	!	!LO:LB:g=original	!	!	!	!	!	!LO:LB:g=original	!	!	!	!	!	!	!LO:LB:g=original	!
4F\	.	4f\	.	4a\	.	4ee-\	.	8F\	na-	4c\	es	4a\	es	4ee-\	es	1f	.	1f	.	4a\	4ee-\	4eee-\
.	.	.	.	.	.	.	.	8F\	-tus	.	.	.	.	.	.	.	.	.	.	.	.	.
4F\	.	4f\	.	4b-\	.	4dd\	.	8F\	es	4B-\	de	4b-\	de	4dd\	de	.	.	.	.	4b-\	4dd\	4ddd\
.	.	.	.	.	.	.	.	8F\	de	.	.	.	.	.	.	.	.	.	.	.	.	.
4F\	.	4f\	.	4cc 4a\	.	4gg\	.	4F\	Vir-	4A\	Vir-	4cc\	Vir-	4gg\	Vir-	.	.	.	.	2a\	4gg\	4ggg\
4F\	.	4f\	.	4cc 4a\	.	4ff\	.	4F\	-gi-	4A\	-gi-	4cc\	-gi-	4ff\	-gi-	.	.	.	.	.	4ff\	4fff\
=65	=65	=65	=65	=65	=65	=65	=65	=65	=65	=65	=65	=65	=65	=65	=65	=65	=65	=65	=65	=65	=65	=65
4BB-/	.	4B-/	.	8b-\	.	8dd\	.	4BB-/	-ne	4.c`\	-ne.	4.b-\	-ne	4.dd\	-ne,	2B-/	.	2f\	.	8b-\	8dd\	8fff\
.	.	.	.	8d/L	.	8b-\L	.	.	.	.	.	.	.	.	.	.	.	.	.	8d/L	8b-\L	8bb-\L
4BB-/	.	4B-/	.	8f/	.	8dd\	.	4r	.	.	.	.	.	.	.	.	.	.	.	8f/	8dd\	8ddd\
.	.	.	.	8e-/J	.	8b-\J	.	.	.	8r	.	8r	.	8r	.	.	.	.	.	8e-/J	8cc\J	8ccc\J
4BB-/	.	4B-/	.	4d/	.	4b-\	.	4r	.	4r	.	4r	.	4r	.	4B-/	.	4f\	.	4d/	4b-\	4bb-\
4BB-/	.	4B-/	.	4b- 4f/	.	4dd\	p	4BB-/	cum	4B-\	Cum	4f\	cum	[4dd\	cum	4r	.	4r	.	4r	4r	4r
=66	=66	=66	=66	=66	=66	=66	=66	=66	=66	=66	=66	=66	=66	=66	=66	=66	=66	=66	=66	=66	=66	=66
!	!	!	!	!	!	!LO:LB:g=original	!	!	!	!	!	!LO:LB:g=original	!	!	!	!	!	!LO:LB:g=original	!	!	!	!
(2E-\	.	(2e-\	.	2a 2f/	.	4dd\	.	2E-\	Pa-	2A\	Pa-	2f\	Pa-	4dd\]	.	2r	.	2r	.	2r	2r	2r
.	.	.	.	.	.	4cc\	.	.	.	.	.	.	.	4cc\	Pa-	.	.	.	.	.	.	.
4D\)	.	4d\)	.	4b- 4f/	.	4b-\	.	4D\	-tre	4B-\	-tre	4f\	-tre	4b-\	-tre	4r	.	4r	.	4r	4r	4r
*	*	*	*	*	*	*	*	*	*ij	*	*ij	*	*ij	*	*ij	*	*	*	*	*	*	*
4BB-\	.	4B-\	.	4b- 4f/	.	4dd\	.	4BB-\	cum	4B-\	cum	4f\	cum	[4dd\	cum	4B-/	.	4B-/	.	4b-\	[4dd\	[4ddd\
=67	=67	=67	=67	=67	=67	=67	=67	=67	=67	=67	=67	=67	=67	=67	=67	=67	=67	=67	=67	=67	=67	=67
!	!	!	!	!LO:LB:g=original	!	!	!	!	!	!LO:LB:g=original	!	!	!	!	!	!	!	!	!	!	!	!
2E-\	.	(2e-\	.	2a 2f/	.	(4dd\	.	2E-\	Pa-	2A\	Pa-	2f\	Pa-	4dd\]	.	(2e-\	.	2e-\	.	2b-\	4dd\]	4ddd\]
.	.	.	.	.	.	4cc\)	.	.	.	.	.	.	.	4cc\	Pa-	.	.	.	.	.	4cc\	4ccc\
4D\	.	4d\)	.	4b- 4f/	.	4b-\	.	4D\	-tre	4B-\	-tre	4f\	-tre	4b-\	-tre	4d\)	.	4d\	.	4b-\	4b-\	4bb-\
*	*	*	*	*	*	*	*	*	*Xij	*	*Xij	*	*Xij	*	*Xij	*	*	*	*	*	*	*
4En\	.	4en\	.	4g 4c/	.	4b-\	.	4En\	et	4G\	et	4c\	et	4b-\	et	4B-\	.	4B-\	.	4b-\	4cc\	4bb-\
=68	=68	=68	=68	=68	=68	=68	=68	=68	=68	=68	=68	=68	=68	=68	=68	=68	=68	=68	=68	=68	=68	=68
!	!	!	!	!	!	!	!	!LO:LB:g=original	!	!	!	!	!	!	!	!LO:LB:g=original	!	!	!	!LO:LB:g=original	!	!LO:LB:g=original
4F\	.	4f\	.	4f 4c/	.	4a\	.	4F\	al-	4c\	al-	4c\	al-	4a\	al-	2f\	.	2f\	.	2a\	2cc\	2aa\
4E-X\	.	4e-X\	.	4a 4f/	.	4cc\	.	4E-X\	-mo	4A\	-mo	4f\	-mo	4cc\	-mo	.	.	.	.	.	.	.
4D\	.	4d\	.	4b- 4d/	.	4b-\	.	4D\	Spi-	4B-\	Spi-	4f\	spi-	4b-\	Spi-	2B-\	.	2f\	.	2b-\	2dd\	2bb-\
4BB-\	.	4B-\	.	4b- 4g/	.	4dd\	.	4BB-\	-ri-	4B-\	-ri-	4f\	-ri-	4cc\	-ri-	.	.	.	.	.	.	.
=69||	=69||	=69||	=69||	=69||	=69||	=69||	=69||	=69||	=69||	=69||	=69||	=69||	=69||	=69||	=69||	=69||	=69||	=69||	=69||	=69||	=69||	=69||
!LO:PB:g=original	!	!	!LO:LB:g=original	!	!	!	!	!	!	!	!	!	!	!LO:LB:g=original	!	!	!	!	!	!	!	!
!LO:TX:a:t=P:problem=brakuje tt.69-74	!	!LO:TX:a:t=P:problem=mixed beam	!	!	!	!	!	!	!	!	!	!	!	!	!	!	!	!	!	!	!	!
!	!	!LO:TX:a:i:t=Piu di molto	!	!LO:TX:a:i:t=Piu di moto.	!	!LO:TX:a:i:t=Piu di moto.	!	!LO:TX:a:i:t=Piu diu moto	!	!LO:TX:a:i:t=Piu di molto.	!	!LO:TX:a:i:t=Piu di moto.	!	!LO:TX:a:i:t=Piu di molto.	!	!LO:TX:a:i:t=Piu di moto.	!	!LO:TX:a:i:t=Piu di moto.	!	!LO:TX:a:i:t=Piu di moto.	!LO:TX:a:i:t=Piu di moto.	!LO:TX:a:Bi:t=Piu di moto.
1ryy	.	8f\L	.	8aL 8f\	.	8cc\L	.	4F\	-tu	4A\	-tu	4f\	-tu	4cc\	-tu,	4B-\	.	4f\	.	8a\	8cc\	8aa\L
.	.	8F/	.	8f\	.	8f\	.	.	.	.	.	.	.	.	.	.	.	.	.	8f\L	8f/L	8ff\
!	!	!	!	!	!	!	!	!	!	!	!	!	!	!	!	!	!	!LO:TX:a:t=P:problem=mixed beam	!	!	!	!
.	.	8G/	.	8g\	.	8g\	.	4r	.	4r	.	4r	.	4r	.	8B-\L	.	8g\L	.	8g\	8g/	8gg\
.	.	8A/J	.	8a\J	.	8a\J	.	.	.	.	.	.	.	.	.	8A\J	.	8A/J	.	8a\J	8a/J	8aa\J
.	.	8B-/	.	8b-\	.	8b-\	.	2r	.	2r	.	2r	.	8r	.	8B-\	.	8B-/	.	8b-\	8b-\	8bb-\
.	.	8r	.	8r	.	8b-\L	.	.	.	.	.	.	.	8b-\	in	8r	.	8r	.	8r	8r	8b-\L
.	.	4r	.	4r	.	8dd\	.	.	.	.	.	.	.	8dd\	sem-	4r	.	4r	.	4r	4r	8dd\
.	.	.	.	.	.	8cc\J	.	.	.	.	.	.	.	8cc\	-pi-	.	.	.	.	.	.	8cc\J
=70	=70	=70	=70	=70	=70	=70	=70	=70	=70	=70	=70	=70	=70	=70	=70	=70	=70	=70	=70	=70	=70	=70
!	!	!	!	!	!	!	!	!	!	!	!	!	!	!	!	!	!	!	!	!	!LO:LB:g=original	!
!	!	!LO:TX:a:t=5.	!	!LO:TX:a:t=2.	!	!	!	!LO:TX:a:t=8.	!	!LO:TX:a:t=5	!	!LO:TX:a:t=2.	!	!	!	!LO:TX:a:t=10	!	!LO:TX:a:t=10	!	!LO:TX:a:t=5.	!LO:TX:a:t=2.	!
1ryy	.	00r	.	0r	.	4b-\	.	00r	.	00r	.	0r	.	4b-\	-ter-	1r	.	1r	.	00r	0r	4b-\
.	.	.	.	.	.	4a\	.	.	.	.	.	.	.	4a\	-na	.	.	.	.	.	.	4a\
.	.	.	.	.	.	4dd\	.	.	.	.	.	.	.	4dd\	Sae-	.	.	.	.	.	.	4dd\
!	!	!	!	!	!	!LO:N:vis=4.	!	!	!	!	!	!	!	!	!	!	!	!	!	!	!	!
.	.	.	.	.	.	4cc\	.	.	.	.	.	.	.	4cc\	-cu-	.	.	.	.	.	.	4cc\
=71	=71	=71	=71	=71	=71	=71	=71	=71	=71	=71	=71	=71	=71	=71	=71	=71	=71	=71	=71	=71	=71	=71
1ryy	.	.	.	.	.	4b-\	.	.	.	.	.	.	.	4b-\	-la	1r	.	1r	.	.	.	4b-\
.	.	.	.	.	.	8a\L	.	.	.	.	.	.	.	8a\L	a-	.	.	.	.	.	.	8a\L
.	.	.	.	.	.	8b-\J	.	.	.	.	.	.	.	8b-\J	.	.	.	.	.	.	.	8b-\J
.	.	.	.	.	.	4cc\	.	.	.	.	.	.	.	4cc\	.	.	.	.	.	.	.	4cc\
!	!	!	!	!LO:TX:b:t=V. S.	!	!	!	!	!	!	!	!	!	!	!	!	!	!	!	!	!	!
.	.	.	.	.	.	4a\	.	.	.	.	.	.	.	4a\	.	.	.	.	.	.	.	4a\
=72	=72	=72	=72	=72	=72	=72	=72	=72	=72	=72	=72	=72	=72	=72	=72	=72	=72	=72	=72	=72	=72	=72
!	!	!	!	!LO:PB:g=original	!	!	!	!	!	!	!	!	!	!	!	!	!	!	!	!	!	!
1ryy	.	.	.	2r	.	4f/	.	.	.	.	.	2r	.	4f\	.	1r	.	1r	.	.	2r	4f/
.	.	.	.	.	.	4g/	.	.	.	.	.	.	.	4g\	.	.	.	.	.	.	.	4g/
.	.	.	.	8r	.	4a/	.	.	.	.	.	8r	.	4a\	-men	.	.	.	.	.	8r	4a/
.	.	.	.	8f'/L	.	.	.	.	.	.	.	8f\	in	.	.	.	.	.	.	.	8f/L	.
.	.	.	.	8a'/	.	8cc/L	.	.	.	.	.	8a\	sem-	8cc\L	a-	.	.	.	.	.	8a/	8cc\L
.	.	.	.	8g'/J	.	8b-/J	.	.	.	.	.	8g\	-pi-	8b-\J	.	.	.	.	.	.	8g/J	8b-\J
=73	=73	=73	=73	=73	=73	=73	=73	=73	=73	=73	=73	=73	=73	=73	=73	=73	=73	=73	=73	=73	=73	=73
!	!	!	!	!	!	!	!	!	!	!	!	!LO:LB:g=original	!	!LO:LB:g=original	!	!	!	!	!	!	!	!
1ryy	.	.	.	4f/	.	4a\	.	.	.	.	.	4f\	-ter-	4a\	.	1r	.	1r	.	.	4f/	4a\
.	.	.	.	4en/	.	4b-\	.	.	.	.	.	4en\	-na	4cc\	.	.	.	.	.	.	4eX/	4cc\
.	.	.	.	4a/	.	4.ff\	.	.	.	.	.	4a\	Sae-	4.ff\	.	.	.	.	.	.	4a/	4.ff\
.	.	.	.	4g/	.	.	.	.	.	.	.	4g\	-cu-	.	.	.	.	.	.	.	4g/	.
!	!	!	!	!	!	!LO:TX:b:t=V. S.	!	!	!	!	!	!	!	!	!	!	!	!	!	!	!	!
.	.	.	.	.	.	8een\	.	.	.	.	.	.	.	8een\	.	.	.	.	.	.	.	8een\
=74	=74	=74	=74	=74	=74	=74	=74	=74	=74	=74	=74	=74	=74	=74	=74	=74	=74	=74	=74	=74	=74	=74
!	!	!	!	!	!	!LO:PB:g=original	!	!	!	!	!	!	!	!	!	!	!	!	!	!	!	!LO:LB:g=original
1ryy	.	1r	.	4f/	.	8ff\L	.	00r	.	1r	.	4f\	-la.	8ff\L	.	1r	.	1r	.	1r	4f/	8ff\L
.	.	.	.	.	.	8a\	.	.	.	.	.	.	.	8a\	.	.	.	.	.	.	.	8a\
.	.	.	.	8d/L	.	8b-\	.	.	.	.	.	8d\L	A-	8b-\	.	.	.	.	.	.	8d/L	8b-\
.	.	.	.	8e-X/J	.	8cc\J	.	.	.	.	.	8e-X\J	.	8cc\J	.	.	.	.	.	.	8e-X/J	8cc\J
.	.	.	.	4f/	.	4dd\	.	.	.	.	.	4f\	.	4dd\	-men	.	.	.	.	.	4f/	4dd\
.	.	.	.	4d/	.	8b-\L	.	.	.	.	.	4d\	.	8b-\L	a-	.	.	.	.	.	4d/	8b-\L
!	!	!LO:TX:b:t=V. S.	!	!	!	!	!	!	!	!	!	!	!	!	!	!	!	!	!	!	!	!
.	.	.	.	.	.	8cc\J	.	.	.	.	.	.	.	8cc\J	.	.	.	.	.	.	.	8cc\J
=75	=75	=75	=75	=75	=75	=75	=75	=75	=75	=75	=75	=75	=75	=75	=75	=75	=75	=75	=75	=75	=75	=75
!LO:PB:g=original	!	!LO:PB:g=original	!	!	!	!	!	!	!	!	!	!	!	!	!	!	!	!	!	!	!	!
*^	*	*	*	*	*	*	*	*	*	*	*	*	*	*	*	*	*	*	*	*	*	*
!LO:TX:a:i:t=Viol&colon;	!	!	!	!	!	!	!	!	!	!	!	!	!	!	!	!	!	!	!	!	!	!	!
2rG	1rE	.	2r	.	4B-/	.	4dd\	.	.	.	2r	.	4B-/	.	4dd\	.	1r	.	1r	.	2r	4B-/	4dd\
.	.	.	.	.	4c/	.	8g\L	.	.	.	.	.	4c/	.	8g\L	.	.	.	.	.	.	4c/	8g\L
.	.	.	.	.	.	.	8a\J	.	.	.	.	.	.	.	8a\J	.	.	.	.	.	.	.	8a\J
8rG	.	.	8r	.	4d/	.	4.b-\	.	.	.	8r	.	4d/	-men,	4.b-\	.	.	.	.	.	8r	4d/	4.b-\
8B-/L	.	.	8B-\L	.	.	.	.	.	.	.	8B-\	in	.	.	.	.	.	.	.	.	8A/L	.	.
8d/	.	.	8d\	.	8f/L	.	.	.	.	.	8d\	sem-	8f\L	a-	.	.	.	.	.	.	8d/	8f/L	.
8c/J	.	.	8c\J	.	8e-/J	.	8a\	.	.	.	8c\	-pi-	8e-\J	.	8a\	.	.	.	.	.	8c/J	8e-/J	8a\
=76	=76	=76	=76	=76	=76	=76	=76	=76	=76	=76	=76	=76	=76	=76	=76	=76	=76	=76	=76	=76	=76	=76	=76
4B-/	1r	.	4B-\	.	4d/	.	4b-\	.	.	.	4B-\	-ter-	4d\	.	4b-\	.	1r	.	1r	.	4B-/	4d/	4b-\
4A/	.	.	4A\	.	4f/	.	4cc\	.	.	.	4A\	-na	4f\	.	4cc\	.	.	.	.	.	4A/	4f/	4cc\
4d/	.	.	4d\	.	4.b-\	.	4dd\	.	.	.	4d\	Sae-	4.b-\	.	4dd\	.	.	.	.	.	4d/	4.b-/	4dd\
4c/	.	.	4c\	.	.	.	4ee-\	.	.	.	4c\	-cu-	.	.	4ee-\	.	.	.	.	.	4c/	.	4ee-\
.	.	.	.	.	8a\	.	.	.	.	.	.	.	8a\	.	.	.	.	.	.	.	.	8a/	.
*v	*v	*	*	*	*	*	*	*	*	*	*	*	*	*	*	*	*	*	*	*	*	*	*
=77	=77	=77	=77	=77	=77	=77	=77	=77	=77	=77	=77	=77	=77	=77	=77	=77	=77	=77	=77	=77	=77	=77
!	!	!	!	!	!	!	!	!	!	!LO:LB:g=original	!	!	!	!	!	!	!	!	!	!	!	!
4B-/	.	4B-\	.	4b-\	.	4dd\	.	.	.	4B-\	-la	4b-\	.	4dd\	.	1r	.	1r	.	4B-/	4b-/	4dd\
*^	*	*	*	*	*	*	*	*	*	*	*	*	*	*	*	*	*	*	*	*	*	*
8A/L	2.r	.	8A\L	.	8f\L	.	4ff\	.	.	.	8A\L	a-	8f\L	-men,	4ff\	.	.	.	.	.	8A/L	8f/L	4ff\
8B-/J	.	.	8B-\J	.	8g\J	.	.	.	.	.	8B-\J	.	8g\J	.	.	.	.	.	.	.	8B-/J	8g/J	.
4c/	.	.	4c\	.	4a\	.	4dd\	.	.	.	4c\	.	4a\	a-	4cc\	.	.	.	.	.	4c/	4a/	4cc\
4A/	.	.	4A\	.	8f\L	.	[4ff\	.	.	.	4A\	.	8f\L	.	[4ff\	.	.	.	.	.	4A/	8f/L	[4ff\
.	.	.	.	.	8g\J	.	.	.	.	.	.	.	8g\J	.	.	.	.	.	.	.	.	8g/J	.
=78	=78	=78	=78	=78	=78	=78	=78	=78	=78	=78	=78	=78	=78	=78	=78	=78	=78	=78	=78	=78	=78	=78	=78
!	!	!	!	!	!LO:LB:g=original	!	!	!	!	!	!	!	!LO:LB:g=original	!	!	!	!	!	!	!	!	!LO:LB:g=original	!
4F/	4r	.	4F/	.	4a/	.	4.ff\]	.	2r	.	4F/	.	4a\	.	4.ff\]	.	1r	.	1r	.	4F/	4a\	4.ff\]
4G/	4r	.	4G/	.	4b-/	.	.	.	.	.	4G/	.	4b-\	.	.	.	.	.	.	.	4G/	4b-\	.
.	.	.	.	.	.	.	8ee-\	.	.	.	.	.	.	.	8een\	.	.	.	.	.	.	.	8een\
4A/	8r	.	4A/	.	4.f/	.	4ff\	.	8r	.	4A/	-men,	4.f\	.	4ff\	-men.	.	.	.	.	4A/	4.f\	4ff\
.	8F\L	.	.	.	.	.	.	.	8F\	in	.	.	.	.	.	.	.	.	.	.	.	.	.
8c/L	8A\	.	8c/L	.	.	.	4r	.	8A\	Sem-	8c/L	a-	.	.	4r	.	.	.	.	.	8c/L	.	4r
!	!	!	!	!	!	!	!	!	!	!	!LO:TX:b:t=V. S.	!	!	!	!	!	!	!	!	!	!	!	!
8B-/J	8G\J	.	8B-/J	.	8en/	.	.	.	8G\	-pi-	8B-/J	.	8en\	.	.	.	.	.	.	.	8B-/J	8eX\	.
=79	=79	=79	=79	=79	=79	=79	=79	=79	=79	=79	=79	=79	=79	=79	=79	=79	=79	=79	=79	=79	=79	=79	=79
!	!	!	!	!	!	!	!	!	!	!	!LO:PB:g=original	!	!	!	!LO:PB:g=original	!	!	!	!	!	!LO:LB:g=original	!	!
!	!	!	!	!	!	!	!LO:TX:a:t=2	!	!	!	!	!	!	!	!LO:TX:a:t=2.	!	!	!	!	!	!	!	!LO:TX:a:t=2.
4A/	4F\	.	4A/	.	4f/	.	0r	.	4F\	-ter-	4A\	.	4f\	.	0r	.	1r	.	1r	.	4A/	4f\	0r
4c/	4En\	.	4c/	.	4g/	.	.	.	4En\	-na	4c\	.	4g\	.	.	.	.	.	.	.	4c/	4g\	.
4.f/	4A\	.	4.f\	.	4a/	.	.	.	4A\	Sae-	4.f\	.	4a\	.	.	.	.	.	.	.	4.f/	4a\	.
.	4G\	.	.	.	4b-/	.	.	.	4G\	-cu-	.	.	4b-\	.	.	.	.	.	.	.	.	4b-\	.
8en/	.	.	8en\	.	.	.	.	.	.	.	8en\	.	.	.	.	.	.	.	.	.	8eX/	.	.
=80	=80	=80	=80	=80	=80	=80	=80	=80	=80	=80	=80	=80	=80	=80	=80	=80	=80	=80	=80	=80	=80	=80	=80
!LO:LB:g=original	!LO:LB:g=original	!	!	!	!	!	!	!	!	!	!	!	!	!	!	!	!	!	!	!	!	!	!
4f/	4F\	.	8f\L	.	4a/	.	.	.	4F\	-la,	8f\L	.	4a\	.	.	.	2r	.	2r	.	4f/	4a\	.
.	.	.	8c\	.	.	.	.	.	.	.	8A\	.	.	.	.	.	.	.	.	.	.	.	.
8D\L	4ryy	.	8B-\	.	4b-/	.	.	.	8D\L	a-	8B-\	.	4b-\	.	.	.	.	.	.	.	8c/L	4b-\	.
8E-X\J	.	.	8c\J	.	.	.	.	.	8E-X\J	.	8c\J	.	.	.	.	.	.	.	.	.	8c/J	.	.
4F\	2ryy	.	4d\	.	4f/	.	.	.	4F\	.	4d\	-men,	4f\	.	.	.	4r	.	4r	.	4d/	4f\	.
4D\	.	.	8B-\L	.	[4b-/	.	.	.	4D\	.	8B-\L	a-	[4b-\	.	.	.	4B-/	.	4f\	.	8B-/L	[4b-\	.
.	.	.	8c\J	.	.	.	.	.	.	.	8c\J	.	.	.	.	.	.	.	.	.	8c/J	.	.
*v	*v	*	*	*	*	*	*	*	*	*	*	*	*	*	*	*	*	*	*	*	*	*	*
=81	=81	=81	=81	=81	=81	=81	=81	=81	=81	=81	=81	=81	=81	=81	=81	=81	=81	=81	=81	=81	=81	=81
!	!	!LO:LB:g=original	!	!	!	!	!	!	!	!	!	!	!	!	!	!	!	!	!	!	!	!LO:LB:g=original
4BB-/	.	4d\	.	4.b-/]	.	2r	.	4BB-/	.	4d\	.	4.b-\]	.	2r	.	2f\	.	2f\	.	4d/	4.b-\]	2r
4C/	.	4e-\	.	.	.	.	.	4C/	.	4e-\	.	.	.	.	.	.	.	.	.	4e-/	.	.
.	.	.	.	8a/	.	.	.	.	.	.	.	8a\	.	.	.	.	.	.	.	.	8a\	.
!	!	!	!	!	!	!	!	!LO:TX:b:t=P:problem=przekreślone "-men"	!	!	!	!	!	!	!	!	!	!	!	!	!	!
4D/	.	4.B-\	.	4b-/	.	8r	.	4D/	.	4.B-\	.	4b-\	-men	8r	.	4B-\	.	4f\	.	4.B-/	8b-\	8r
.	.	.	.	.	.	8b-\L	.	.	.	.	.	.	.	8a\	in	.	.	.	.	.	8b-\L	8bb-\L
!	!	!	!	!	!	!	!	!LO:TX:b:t=P:problem=przekreślone "a-"	!	!	!	!	!	!	!	!	!	!	!	!	!	!
8BB-/L	.	.	.	4r	.	8dd\	.	8BB-/L	.	.	.	4r	.	8dd\	Sem-	4f\	.	4f\	.	.	8dd\	8ddd\
8C/J	.	8A\	.	.	.	8cc\J	.	8C/J	.	8A\	.	.	.	8cc\	-pi-	.	.	.	.	8A/	8cc\J	8ccc\J
=82	=82	=82	=82	=82	=82	=82	=82	=82	=82	=82	=82	=82	=82	=82	=82	=82	=82	=82	=82	=82	=82	=82
!	!	!	!	!	!	!	!	!LO:LB:g=original	!	!	!	!	!	!	!	!	!	!LO:LB:g=original	!	!	!	!
!	!	!	!	!LO:TX:a:t=2.	!	!	!	!	!	!	!	!LO:TX:a:t=2.	!	!	!	!	!	!	!	!	!	!
4D\	.	4B-\	.	0r	.	4b-\	.	4D\	.	4B-\	.	0r	.	4b-\	-ter-	4B-\	.	4f\	.	4B-/	4b-\	4bb-\
4F\	.	4c\	.	.	.	4a\	.	4F\	.	4c\	.	.	.	4a\	-na	4f\	.	4f\	.	4c/	4a\	4aa\
4.B-\	.	4d\	.	.	.	4dd\	.	4.B-\	.	4d\	.	.	.	4dd\	Sae-	2f\	.	2f\	.	4d/	4dd\	4ddd\
.	.	4e-\	.	.	.	4cc\	.	.	.	4e-\	.	.	.	4cc\	-cu-	.	.	.	.	4e-/	4cc\	4ccc\
8A\	.	.	.	.	.	.	.	8A\	.	.	.	.	.	.	.	.	.	.	.	.	.	.
=83	=83	=83	=83	=83	=83	=83	=83	=83	=83	=83	=83	=83	=83	=83	=83	=83	=83	=83	=83	=83	=83	=83
4B-\	.	4d\	.	.	.	4b-\	.	4B-\	.	4d\	.	.	.	4b-\	-la.	4B-\	.	4f\	.	4d/	4b-\	4bb-\
8F\L	.	4f\	.	.	.	8a\L	.	(8F\L	-men	4f\	.	.	.	8a\L	a-	4f\	.	4f\	.	4f/	8a\L	4bb-\
8G\J	.	.	.	.	.	8cc\J	.	8G\J	.	.	.	.	.	8b-\J	.	.	.	.	.	.	8b-\J	.
4A\	.	4c\	.	.	.	4cc\	.	4A\)	.	4c\	.	.	.	4cc\	.	2f\	.	2f\	.	4c/	4cc\	4ccc\
!	!	!	!	!	!	!	!	!	!	!LO:TX:a:t=P:problem=brak początku ligatury	!	!	!	!	!	!	!	!	!	!	!	!
8F\L	.	4f\	.	.	.	4a\	.	8E-\L	a-	[4f\	.	.	.	4a\	.	.	.	.	.	4f/	4a\	4aa\
8G\J	.	.	.	.	.	.	.	8F\J	.	.	.	.	.	.	.	.	.	.	.	.	.	.
=84	=84	=84	=84	=84	=84	=84	=84	=84	=84	=84	=84	=84	=84	=84	=84	=84	=84	=84	=84	=84	=84	=84
!	!	!	!	!	!	!	!	!	!	!LO:LB:g=original	!	!LO:PB:g=original	!	!	!	!LO:LB:g=original	!	!	!	!	!LO:LB:g=original	!
4A\	.	4.f\	.	2r	.	4f/	.	4A\	.	4.f\]	.	2r	.	4f/	.	4f\	.	4f\	.	4.f/	4.f\	4ff\
4B-\	.	.	.	.	.	4g/	.	4B-\	.	.	.	.	.	4g/	.	4g\	.	4g\	.	.	.	4gg\
.	.	8en\	.	.	.	.	.	.	.	8en\	.	.	.	.	.	.	.	.	.	8eX/	8g\	.
4.F\	.	4.f\	.	8r	.	4a/	.	4.F\	.	4f\	-men	8r	.	4a/	-men	4.f\	.	4.f\	.	8f/	4a\	4aa\
.	.	.	.	8f/L	.	.	.	.	.	.	.	8f\	in	.	.	.	.	.	.	8f/L	.	.
.	.	.	.	8a/	.	8cc\L	.	.	.	4r	.	8a\	Sem-	8cc\L	a-	.	.	.	.	8a/	8cc\L	8ccc\L
8En\	.	8e\	.	8g/J	.	8b-\J	.	8En\	.	.	.	8g\	-pi-	8b-\J	.	8f\	.	8g\	.	8g/J	8b-\J	8bb-\J
=85	=85	=85	=85	=85	=85	=85	=85	=85	=85	=85	=85	=85	=85	=85	=85	=85	=85	=85	=85	=85	=85	=85
!LO:LB:g=original	!	!	!	!	!	!	!	!	!	!	!	!	!	!LO:LB:g=original	!	!	!	!	!	!LO:LB:g=original	!	!
4F\	.	4f\	.	4f/	.	4a\	.	4F\	.	2r	.	4f\	-ter-	4a\	-men	4f\	.	4f\	.	4f/	4a\	4aa\
4G\	.	4G/	.	4en/	.	4cc\	.	4G\	.	.	.	4en\	-na	4r	.	4g\	.	4g\	.	4eX/	4cc\	4ccc\
4A\	.	4A/	.	4a/	.	4.ff\	.	4A\	.	8r	.	4a\	Sae-	4.ff\	a-	4.f\	.	4.f\	.	4a/	4.ff\	4.fff\
.	.	.	.	.	.	.	.	.	.	4c\	a-	.	.	.	.	.	.	.	.	.	.	.
4B-\	.	4B-/	.	4g/	.	.	.	4B-\	.	.	.	4g\	-cu-	.	.	.	.	.	.	4g/	.	.
.	.	.	.	.	.	8een\	.	.	.	8c\	-men,	.	.	8een\	.	8g\	.	8g\	.	.	8eeX\	8eeen\
=86	=86	=86	=86	=86	=86	=86	=86	=86	=86	=86	=86	=86	=86	=86	=86	=86	=86	=86	=86	=86	=86	=86
!	!	!	!	!LO:LB:g=original	!	!	!	!LO:LB:g=original	!	!	!	!	!	!	!	!	!	!	!	!	!	!
4A\	.	4A/	.	4f/	.	2ff\	.	4A\	.	4.c\	a-	4f\	-la,	2ff\	.	4f\	.	4f\	.	4f/	2ff\	2fff\
8A\L	.	8B-/L	.	8b-\L	.	.	.	8A\L	.	.	.	8cc\L	a-	.	.	4r	.	4r	.	8cc\L	.	.
8B-\J	.	8c/J	.	8dd\J	.	.	.	8B-\J	.	8d\	.	8b-\J	.	.	.	.	.	.	.	8b-\J	.	.
4c\	.	4c/	.	4g\	.	2een\	.	4c\	.	4en\	.	4g\	.	2een\	.	2r	.	2r	.	4g\	4eeX\	2eeen\
4A\	.	4B-/	.	4cc\	.	.	.	4A\	.	4c\	.	[4a\	.	.	.	.	.	.	.	4a\	4cc\	.
=87	=87	=87	=87	=87	=87	=87	=87	=87	=87	=87	=87	=87	=87	=87	=87	=87	=87	=87	=87	=87	=87	=87
!	!	!LO:LB:g=original	!	!	!	!LO:LB:g=original	!	!	!	!	!	!	!	!	!	!	!	!	!	!	!	!
4d\	.	4d\	.	4a 4f\	.	1dd	.	4d\	.	4f\	.	4a\]	.	1dd	.	4r	.	4r	.	4a\	4ff\	1ddd
8G\L	.	8G/L	.	8b-\L	.	.	.	8G\L	.	8B-\L	.	8b-\L	.	.	.	4g\	.	4g\	.	8b-\L	8b-\L	.
8A\J	.	8A/J	.	8dd\J	.	.	.	8A\J	.	8c\J	.	8a\J	.	.	.	.	.	.	.	8a\J	8cc\J	.
4B-\	.	4B-/	.	4f\	.	.	.	4B-\	.	4d\	.	[2g\	.	.	.	4g\	.	4g\	.	2g\	4dd\	.
4G\	.	4G/	.	4b-\	.	.	.	4G\	.	4B-\	.	.	.	.	.	4r	.	4r	.	.	4b-\	.
=88	=88	=88	=88	=88	=88	=88	=88	=88	=88	=88	=88	=88	=88	=88	=88	=88	=88	=88	=88	=88	=88	=88
!	!	!	!	!	!	!	!	!	!	!	!	!	!	!	!	!	!	!LO:LB:g=original	!	!	!	!LO:LB:g=original
!	!	!	!	!	!	!	!	!	!	!	!	!	!	!	!	!LO:TX:a:t=10.	!	!LO:TX:a:t=10	!	!	!	!
4c\	.	4c\	.	4g/	.	1cc	.	4c\	.	4en\	.	4g\]	.	1cc	.	1r	.	1r	.	4g\	4eeX\	1ccc
8F\L	.	8F/L	.	8a/L	.	.	.	8F\L	.	8A\L	.	8a\L	.	.	.	.	.	.	.	8a\L	8a\L	.
8G\J	.	8G/J	.	8b-/J	.	.	.	8G\J	.	8B-\J	.	8g\J	.	.	.	.	.	.	.	8g\J	8b-\J	.
4A\	.	4A/	.	4en/	.	.	.	4A\	.	4c\	.	2f\	.	.	.	.	.	.	.	2f\	4cc\	.
4F\	.	4F/	.	4a/	.	.	.	4F\	.	4A\	.	.	.	.	.	.	.	.	.	.	4a\	.
=89	=89	=89	=89	=89	=89	=89	=89	=89	=89	=89	=89	=89	=89	=89	=89	=89	=89	=89	=89	=89	=89	=89
!	!	!	!	!	!	!	!	!	!	!LO:LB:g=original	!	!LO:LB:g=original	!	!	!	!	!	!	!	!	!	!
4B-\	.	4B-/	.	4f 4d/	.	1b-	.	4B-\	.	4d\	.	4f\	.	1b-	.	1r	.	1r	.	4g/	4dd\	1bb-
8En\L	.	8En/L	.	8g/L	.	.	.	8En\L	.	8G\L	.	8g\L	.	.	.	.	.	.	.	8g/L	8g\L	.
8F\J	.	8F/J	.	8a/J	.	.	.	8F\J	.	8A\J	.	8f\J	.	.	.	.	.	.	.	8f/J	8a\J	.
4G\	.	4G/	.	4d/	.	.	.	4G\	.	4B-\	.	[2en\	.	.	.	.	.	.	.	2eX/	4b-\	.
4E\	.	4E/	.	4g/	.	.	.	4E\	.	4G\	.	.	.	.	.	.	.	.	.	.	4g\	.
=90	=90	=90	=90	=90	=90	=90	=90	=90	=90	=90	=90	=90	=90	=90	=90	=90	=90	=90	=90	=90	=90	=90
!LO:LB:g=original	!	!	!	!	!	!	!	!LO:LB:g=original	!	!	!	!	!	!	!	!	!	!	!	!	!LO:LB:g=original	!
4A\	.	4A/	.	4en 4c/	.	2.a\	.	4A\	.	4c\	.	4en\]	.	2.a\	.	1r	.	1r	.	4e-/	4cc\	2.aa\
8D\L	.	8D/L	.	8f/L	.	.	.	8D\L	.	8F/L	.	8f\L	.	.	.	.	.	.	.	8f/L	8f/L	.
8En\J	.	8En/J	.	8g/J	.	.	.	8En\J	.	8G/J	.	8eny\J	.	.	.	.	.	.	.	8d/J	8g/J	.
4F\	.	4F/	.	8f/	.	.	.	4F\	-men,	4A/	-men.	8d\	-men,	.	.	.	.	.	.	8d/	4a\	.
.	.	.	.	8d/L	.	.	.	.	.	.	.	8d\	in	.	.	.	.	.	.	8d/L	.	.
8D\L	.	8D/L	.	8f/	.	8a\L	.	8D\L	a-	4r	.	8f\	Sem-	8a\L	.	.	.	.	.	8f/	4r	(8aa\L
8C#X\J	.	8C#X/J	.	8e/J	.	8g\J	.	8C#X\J	.	.	.	8e\	-pi-	8g\J	.	.	.	.	.	8e-/J	.	8gg\J)
=91	=91	=91	=91	=91	=91	=91	=91	=91	=91	=91	=91	=91	=91	=91	=91	=91	=91	=91	=91	=91	=91	=91
!	!	!	!	!	!	!	!	!	!	!	!	!	!	!	!	!	!	!	!	!LO:LB:g=original	!	!
!	!	!	!	!	!	!	!	!	!	!LO:TX:a:t=2	!	!	!	!	!	!	!	!	!	!	!LO:TX:a:t=2.	!
4D\	.	4D/	.	4d/	.	4f/	.	4D\	.	0r	.	4d\	-ter-	4f\	.	1r	.	1r	.	4d/	0r	4ff\
4En\	.	4En/	.	4c#X/	.	4a/	.	4En\	.	.	.	4c#X\	-na	4a\	.	.	.	.	.	4c#X/	.	4aa\
4F\	.	4F/	.	4f/	.	4.dd\	.	4F\	.	.	.	4f\	Sae-	4.dd\	.	.	.	.	.	4f/	.	4.ddd\
4G\	.	4G/	.	4en/	.	.	.	4G\	.	.	.	4en\	-cu-	.	.	.	.	.	.	4eX/	.	.
.	.	.	.	.	.	8cc#X\	.	.	.	.	.	.	.	8cc#X\	.	.	.	.	.	.	.	8ccc#X\
=92	=92	=92	=92	=92	=92	=92	=92	=92	=92	=92	=92	=92	=92	=92	=92	=92	=92	=92	=92	=92	=92	=92
!	!	!	!	!LO:LB:g=original	!	!	!	!	!	!	!	!	!	!LO:LB:g=original	!	!	!	!	!	!	!	!
4F#X\	.	4F#X/	.	4d/	.	4dd\	.	4F#X\	.	.	.	4d\	-la,	4dd\	.	1r	.	1r	.	4d/	.	4ddd\
4G\	.	4G/	.	8B-/L	.	8g\L	.	4G\	.	.	.	8B-\L	a-	8g\L	.	.	.	.	.	8B-/L	.	8gg\L
.	.	.	.	8c/J	.	8a\J	.	.	.	.	.	8c\J	.	8a\J	.	.	.	.	.	8c/J	.	8aa\J
4D\	.	4D/	.	4d/	.	4b-\	.	4D\	.	.	.	4d\	.	4b-\	-men,	.	.	.	.	4d/	.	4bb-\
[4G\	.	[<4G/	.	4B-/	.	8g\L	.	4G\	.	.	.	4B-\	.	8g\L	a-	.	.	.	.	4B-/	.	8gg\L
!	!	!	!	!	!	!	!	!	!	!	!	!	!	!	!	!	!	!	!	!	!LO:TX:b:t=V. S.	!
.	.	.	.	.	.	8a\J	.	.	.	.	.	.	.	8a\J	.	.	.	.	.	.	.	8aa\J
=93	=93	=93	=93	=93	=93	=93	=93	=93	=93	=93	=93	=93	=93	=93	=93	=93	=93	=93	=93	=93	=93	=93
!	!	!LO:LB:g=original	!	!	!	!	!	!	!	!	!	!LO:LB:g=original	!	!	!	!	!	!	!	!	!LO:PB:g=original	!
*^	*	*	*	*	*	*	*	*	*	*	*	*	*	*	*	*	*	*	*	*	*	*
!	!	!	!LO:TX:b:t=P:problem=brak zakończenia ligatury	!	!	!	!	!	!	!	!	!	!	!	!	!	!	!	!	!	!	!	!
4.G\]	2.ryy	.	4.G/]	.	4G/	.	4b-\	.	4.G\	.	2r	.	4G/	.	4b-\	.	1r	.	1r	.	4G/	2r	4bb-\
.	.	.	.	.	4A/	.	4cc\	.	.	.	.	.	4A/	.	4cc\	.	.	.	.	.	4A/	.	4ccc\
8F#X\	.	.	8Fn/	.	.	.	.	.	8F#X\	.	.	.	.	.	.	.	.	.	.	.	.	.	.
4G\	.	.	8G/	.	4B-/	.	4g\	.	4G\	-men.	8r	.	4B-/	-men,	4.g\	.	.	.	.	.	4B-/	8r	4.gg\
.	.	.	8G/L	.	.	.	.	.	.	.	8G\	in	.	.	.	.	.	.	.	.	.	8g/L	.
8B-/L	4r	.	8B-/	.	8d/L	.	4f#X/	.	4r	.	8B-\	Sem-	8d\L	a-	.	.	.	.	.	.	8d/L	8b-/	.
8A/J	.	.	8A/J	.	8c/J	.	.	.	.	.	8A\	-pi-	8c\J	.	8f#X\	.	.	.	.	.	8c/J	8a/J	8ff#X\
=94	=94	=94	=94	=94	=94	=94	=94	=94	=94	=94	=94	=94	=94	=94	=94	=94	=94	=94	=94	=94	=94	=94	=94
!	!	!	!	!	!	!	!LO:LB:g=original	!	!	!	!	!	!	!	!	!	!	!	!	!	!	!	!
!	!	!	!	!	!	!	!	!	!LO:TX:a:t=2.	!	!	!	!	!	!	!	!	!	!	!	!	!	!
4G/	1rE	.	4G/	.	4B-/	.	4g/	.	0r	.	4G/	-ter-	4B-\	.	4g\	.	1r	.	1r	.	4B-/	4g/	4gg\
4F#X/	.	.	4F#X/	.	4d/	.	4a/	.	.	.	4F#X/	-na	4d\	.	4a\	.	.	.	.	.	4d/	4f#X/	4aa\
4B-/	.	.	4B-/	.	4.g/	.	4b-/	.	.	.	4B-/	Sae-	4.g\	.	4b-\	.	.	.	.	.	4.g/	4b-/	4bb-\
4A/	.	.	4A/	.	.	.	4cc/	.	.	.	4A/	-cu-	.	.	4cc\	.	.	.	.	.	.	4a/	4ccc\
.	.	.	.	.	8f#X/	.	.	.	.	.	.	.	8f#X\	.	.	.	.	.	.	.	8f#X/	.	.
=95	=95	=95	=95	=95	=95	=95	=95	=95	=95	=95	=95	=95	=95	=95	=95	=95	=95	=95	=95	=95	=95	=95	=95
!LO:LB:g=original	!LO:LB:g=original	!	!	!	!	!	!	!	!	!	!LO:LB:g=original	!	!	!	!	!	!	!	!	!	!	!	!LO:LB:g=original
4G/	1rE	.	4G/	.	4g/	.	4bn\	.	.	.	4G/	-la	4g\	.	4bn\	.	1r	.	1r	.	4g/	4g/	4bbn\
8E-X/L	.	.	8E-X/L	.	8c/L	.	4cc\	.	.	.	8E-X/L	a-	8c\L	.	4cc\	.	.	.	.	.	8c/L	8e-X/L	4ccc\
8F/J	.	.	8F/J	.	8d/J	.	.	.	.	.	8F/J	.	8d\J	.	.	.	.	.	.	.	8d/J	8f/J	.
4G/	.	.	4G/	.	4e-X/	.	4g\	.	.	.	4G/	.	4e-X\	-men,	4g\	.	.	.	.	.	4e-X\	4g/	4gg\
4E-/	.	.	4E-/	.	8c/L	.	[4cc\	.	.	.	4E-/	.	8c\L	a-	4cc\	.	.	.	.	.	8c/L	4e-/	4ccc\
.	.	.	.	.	8d/J	.	.	.	.	.	.	.	8d\J	.	.	.	.	.	.	.	8d/J	.	.
=96	=96	=96	=96	=96	=96	=96	=96	=96	=96	=96	=96	=96	=96	=96	=96	=96	=96	=96	=96	=96	=96	=96	=96
!	!	!	!	!	!	!	!	!	!LO:LB:g=original	!	!	!	!	!	!	!	!	!	!	!	!LO:LB:g=original	!	!
4C/	2rAA	.	4C/	.	4e-/	.	4.cc\]	.	2r	.	4C/	.	4e-\	.	4.cc\	.	1r	.	1r	.	4c/	4e-/	4.ccc\
4D/	.	.	4D/	.	4f/	.	.	.	.	.	4D/	.	4f\	.	.	.	.	.	.	.	4d/	4f/	.
.	.	.	.	.	.	.	8bn\	.	.	.	.	.	.	.	8bn\	.	.	.	.	.	.	.	8bbn\
4E-/	8rGG	.	4E-/	.	4.c/	.	4cc\	.	8r	.	4E-/	-men,	4.c\	.	4cc\	-men.	.	.	.	.	4.c/	4e-/	4ccc\
.	8C\	.	.	.	.	.	.	.	8C/	in	.	.	.	.	.	.	.	.	.	.	.	.	.
8G/L	8E-\L	.	8G/L	.	.	.	4r	.	8E-X/	Sem-	8G/L	a-	.	.	4r	.	.	.	.	.	.	8g/L	4r
8F/J	8D\J	.	8F/J	.	8Bn/	.	.	.	8D/	-pi-	8F/J	.	8Bn\	.	.	.	.	.	.	.	8BX/	8f/J	.
=97	=97	=97	=97	=97	=97	=97	=97	=97	=97	=97	=97	=97	=97	=97	=97	=97	=97	=97	=97	=97	=97	=97	=97
!	!	!	!	!	!	!	!	!	!	!	!	!	!LO:LB:g=original	!	!LO:LB:g=original	!	!	!	!	!	!	!	!
!	!	!	!	!	!	!	!LO:TX:a:t=2.	!	!	!	!	!	!	!	!LO:TX:a:t=2.	!	!	!	!	!	!	!	!LO:TX:a:t=2.
4E-/	4C\	.	4E-/	.	4c/	.	0r	.	4C/	-ter-	4E-/	.	4c\	.	0r	.	1r	.	1r	.	4c/	4e-/	0r
4G/	4BBn\	.	4G/	.	4d/	.	.	.	4BBn/	-na	4G/	.	4d\	.	.	.	.	.	.	.	4d/	4g/	.
4.c/	4E-\	.	4.c\	.	4e-/	.	.	.	4E-/	Sae-	4.c\	.	4e-\	.	.	.	.	.	.	.	4e-/	4.cc\	.
.	4D\	.	.	.	4f/	.	.	.	4D/	-cu-	.	.	4f\	.	.	.	.	.	.	.	4f/	.	.
8Bn/	.	.	8Bn\	.	.	.	.	.	.	.	8Bn\	.	.	.	.	.	.	.	.	.	.	8bX\	.
=98	=98	=98	=98	=98	=98	=98	=98	=98	=98	=98	=98	=98	=98	=98	=98	=98	=98	=98	=98	=98	=98	=98	=98
!	!	!	!	!	!LO:LB:g=original	!	!	!	!	!	!	!	!	!	!	!	!	!	!	!	!	!	!
4c/	4C\	.	4c\	.	2e-/	.	.	.	4C/	-la,	4c\	.	2e-\	.	.	.	4r	.	4r	.	2e-/	4cc\	.
8G\L	4ryy	.	8G\L	.	.	.	.	.	8G\L	a-	8B-X\L	.	.	.	.	.	4e-\	.	4e-\	.	.	8b-X\L	.
8A-X\J	.	.	8A-X\J	.	.	.	.	.	8A-X\J	.	8c\J	.	.	.	.	.	.	.	.	.	.	8cc\J	.
4B-\	2ryy	.	4B-\	.	4d/	.	.	.	4B-\	.	2B-\	.	4d\	.	.	.	4B-\	.	4f\	.	4d/	2b-\	.
!	!	!	!	!	!	!	!	!	!	!	!	!	!	!	!	!	!	!	!	!	!	!	!LO:TX:b:t=V. S.
4G\	.	.	[>4G\	.	[4e-/	.	.	.	4G\	.	.	.	[4e-\	.	.	.	4e-\	.	4g\	.	4e-/	.	.
*v	*v	*	*	*	*	*	*	*	*	*	*	*	*	*	*	*	*	*	*	*	*	*	*
=99	=99	=99	=99	=99	=99	=99	=99	=99	=99	=99	=99	=99	=99	=99	=99	=99	=99	=99	=99	=99	=99	=99
!	!	!LO:LB:g=original	!	!	!	!	!	!	!	!	!	!	!	!	!	!LO:LB:g=original	!	!	!	!	!LO:LB:g=original	!LO:PB:g=original
!	!	!LO:TX:b:t=P:problem=brak zakończenia ligatury	!	!	!	!	!	!	!	!	!	!	!	!	!	!	!	!	!	!	!	!
4E-\	.	4G/]	.	4.e-/]	.	2r	.	4E-\	.	4G\	.	4.e-\]	.	2r	.	4e-\	.	4g\	.	4.e-/	4g\	2r
4F\	.	4A-X/	.	.	.	.	.	4F\	.	4A-X\	.	.	.	.	.	4B-\	.	4f\	.	.	4a-X\	.
.	.	.	.	8d/	.	.	.	.	.	.	.	8d\	.	.	.	.	.	.	.	8d/	.	.
4G\	.	4G/	.	4e-/	.	8r	.	4G\	-men,	4.B-\	.	4e-\	-men.	8r	.	4.G/	.	4.e-\	.	4e-/	4.b-\	8r
.	.	.	.	.	.	8ee-\L	.	.	.	.	.	.	.	8ee-X\	in	.	.	.	.	.	.	8eee-\L
8E-\L	.	8E-/L	.	4r	.	8gg\	.	8E-\L	a-	.	.	4r	.	8gg\	Sem-	.	.	.	.	4r	.	8ggg\
!	!	!	!	!	!	!	!	!	!	!	!	!	!	!	!	!	!	!	!	!LO:TX:b:t=V. S.	!	!
8F\J	.	8F/J	.	.	.	8ff\J	.	8F\J	.	8d\	.	.	.	8ff\	-pi-	8B-/	.	8f\	.	.	8dd\	8fff\J
=100	=100	=100	=100	=100	=100	=100	=100	=100	=100	=100	=100	=100	=100	=100	=100	=100	=100	=100	=100	=100	=100	=100
!LO:LB:g=original	!	!	!	!	!	!	!	!	!	!LO:LB:g=original	!	!	!	!	!	!	!	!	!	!LO:PB:g=original	!	!
4G\	.	4G/	.	4r	.	4ee-\	.	4G\	.	4e-\	.	4r	.	4ee-\	-ter-	4e-/	.	4g\	.	4r	4ee-\	4eee-\
4B-\	.	4B-/	.	2b-\	.	4dd\	.	4B-\	.	4f\	.	(2b-\	a-	4dd\	-na	4B-/	.	4f\	.	2b-\	4ff\	4ddd\
4.e-\	.	4.e-\	.	.	.	4gg\	.	4.e-\	.	4e-\	-men.	.	.	4gg\	Sae-	4G/	.	4e-\	.	.	4ee-\	4ggg\
.	.	.	.	4a-X\	.	4ff\	.	.	.	4r	.	4a-X\)	.	4ff\	-cu-	4B-/	.	4f\	.	4a-X\	4r	4fff\
8d\	.	8d\	.	.	.	.	.	8d\	.	.	.	.	.	.	.	.	.	.	.	.	.	.
=101	=101	=101	=101	=101	=101	=101	=101	=101	=101	=101	=101	=101	=101	=101	=101	=101	=101	=101	=101	=101	=101	=101
!	!	!	!	!	!	!	!	!LO:LB:g=original	!	!	!	!	!	!	!	!	!	!	!	!	!	!
4e-\	.	4e-\	.	4g\	.	4ee-\	.	4e-\	.	4r	.	4g\	.	4ee-\	-la.	4e-\	.	4g\	.	4g\	4r	4eee-\
8B-\L	.	8B-\L	.	2b-\	.	8dd\L	.	8B-\L	.	8f\L	a-	2b-\	.	8dd\L	a	8B-\	.	8f\	.	2b-\	8ff\L	8ddd\L
8c\J	.	8c\J	.	.	.	8ee-\J	.	8c\J	.	8e-\J	.	.	.	8ee-\J	.	8r	.	8r	.	.	8ee-\J	8eee-\J
4d\	.	4d\	.	.	.	4ff\	.	4d\	.	[2d\	.	.	.	4ff\	.	2B-/	.	2f\	.	.	2dd\	4fff\
[4B-\	.	[4B-\	.	4f\	.	4dd\	.	[4B-\	.	.	.	[4f\	.	4ee-\	.	.	.	.	.	4f\	.	4ddd\
=102	=102	=102	=102	=102	=102	=102	=102	=102	=102	=102	=102	=102	=102	=102	=102	=102	=102	=102	=102	=102	=102	=102
!	!	!	!	!	!	!LO:LB:g=original	!	!	!	!	!	!	!	!	!	!	!	!	!	!	!	!
4.B-\]	.	4.B-\]	.	2e-/	.	4b- 4d/	.	4.B-\]	.	4d\]	.	2f\]	-men,	4b-\	.	4.B-/	.	2f\	.	2g\	4dd\	4bb-\
.	.	.	.	.	.	4cc 4f/	.	.	.	4e-\	.	.	.	4cc\	.	.	.	.	.	.	4ee-\	4ccc\
8An\	.	8An\	.	.	.	.	.	8An\	.	.	.	.	.	.	.	8A/	.	.	.	.	.	.
4B-\	.	4B-\	.	2b-/	.	4dd 4f/	.	4B-\	-men,	4f\	.	2b-\	a-	4dd\	.	4B-/	.	4f\	.	2b-\	4ff\	4ddd\
4G\	.	4G\	.	.	.	4ee- 4e-/	.	4G\	a-	[4e-\	.	.	.	4ee-\	.	4G/	.	4e-\	.	.	[4ee-\	4eee-\
=103	=103	=103	=103	=103	=103	=103	=103	=103	=103	=103	=103	=103	=103	=103	=103	=103	=103	=103	=103	=103	=103	=103
!	!	!	!	!	!	!	!	!	!	!	!	!LO:LB:g=original	!	!	!	!	!	!	!	!	!	!
4A\	.	4A/	.	2a/	.	4cc 4e-\	.	4A\	.	4e-\]	.	2a\	.	4cc\	.	4r	.	4r	.	2a\	4ee-\]	4ccc\
4F\	.	4F/	.	.	.	4dd 4d\	.	4F\	.	[4d\	.	.	.	4dd\	.	4f\	.	4f\	.	.	[4dd\	4ddd\
4G\	.	4G/	.	2g/	.	4b- 4d\	.	4G\	.	4d\]	.	2g\	.	4b-\	.	4G/	.	4g\	.	2g\	4dd\]	4bb-\
4E-\	.	4E-/	.	.	.	4cc\	.	4E-\	.	[4c\	.	.	.	4cc\	.	4E-/	.	4e-\	.	.	4cc\	4ccc\
=104	=104	=104	=104	=104	=104	=104	=104	=104	=104	=104	=104	=104	=104	=104	=104	=104	=104	=104	=104	=104	=104	=104
!	!	!	!	!	!	!	!	!	!	!	!	!	!	!LO:LB:g=original	!	!	!	!LO:LB:g=original	!	!	!	!
4F\	.	4F/	.	[2f/	.	4a 4c/	.	4F\	.	4c\]	.	2.f\	.	4a\	.	4r	.	4r	.	2.f/	4cc\	4aa\
4D\	.	4D/	.	.	.	4b-/	.	4D\	.	4B-\	.	.	.	4b-\	.	4f\	.	4f\	.	.	4b-\	[4bb-\
2G\	.	2G/	.	4f/]	.	2b-/	.	2G\	.	2B-\	.	.	.	2b-\	.	2g\	.	2g\	.	.	2b-\	2bb-\]
.	.	.	.	4en/	.	.	.	.	.	.	.	4en\	.	.	.	.	.	.	.	4eX/	.	.
=105	=105	=105	=105	=105	=105	=105	=105	=105	=105	=105	=105	=105	=105	=105	=105	=105	=105	=105	=105	=105	=105	=105
!	!	!LO:LB:g=original	!	!	!	!	!	!	!	!	!	!	!	!	!	!LO:LB:g=original	!	!	!	!	!LO:LB:g=original	!LO:LB:g=original
!LO:TX:a:t=P:problem=fermata nad półnutą i ósemką, dopisana ołówkiem	!	!LO:TX:a:t=P:problem=fermata nad półnutą i ósemką	!	!LO:TX:a:t=P:problem=dwie fermaty nad półnutą i ósemką, na górze i na dole	!	!LO:TX:a:t=P:problem=fermata nad półnutą i ósemką	!	!	!	!LO:TX:a:t=P:problem=fermata nad półnutą i ósemką	!	!	!	!LO:TX:a:t=P:problem=fermata nad półnutą i ósemką	!	!LO:TX:a:t=P:problem=fermata nad półnutą i ósemką	!	!LO:TX:a:t=P:problem=fermata nad półnutą i ósemką	!	!LO:TX:a:t=P:problem=fermata nad półnutą i ósemką	!LO:TX:a:t=P:problem=fermata nad półnutą i ósemką	!
2F;\	.	2F;/	.	2f;/	.	2b-;/	.	2F;\	.	2F;/	.	2f;\	-men.	2a;\	.	2f;\	.	2f;\	.	2f;/	2a;\	2aa;\
8F\	.	8F/	.	8e-/	.	8a/	.	8F\	-men	8F/	-men.	8f\	.	8a\	men	8f\	.	8f\	.	8f/	8a\	8aa\
8r	.	8r	.	8f/L	.	8r	.	8r	.	8r	.	8f\	in	8r	.	8r	.	8r	.	8f\L	8r	8r
4r	.	4r	.	8a/	.	4r	.	4r	.	4r	.	8a\	Sem-	4r	.	4r	.	4r	.	8g\	4r	4r
.	.	.	.	8g/J	.	.	.	.	.	.	.	8g\	-pi-	.	.	.	.	.	.	8f\J	.	.
=106	=106	=106	=106	=106	=106	=106	=106	=106	=106	=106	=106	=106	=106	=106	=106	=106	=106	=106	=106	=106	=106	=106
!LO:LB:g=original	!	!	!	!	!	!	!	!	!	!LO:LB:g=original	!	!	!	!	!	!	!	!	!	!	!	!
!	!	!	!	!	!	!	!	!LO:TX:a:t=1.	!	!	!	!	!	!	!	!LO:TX:a:t=1	!	!LO:TX:a:t=1.	!	!	!	!
1r	.	2r	.	4f/	.	8r	.	1r	.	2r	.	4f\	-ter-	8r	.	1r	.	1r	.	4f\	8r	2r
.	.	.	.	.	.	8a\L	.	.	.	.	.	.	.	8a\	in	.	.	.	.	.	8a\L	.
.	.	.	.	8a/L	.	8cc\	.	.	.	.	.	8a\L	-na	8cc\	sem-	.	.	.	.	8a\L	8cc\	.
.	.	.	.	8f/J	.	8b-\J	.	.	.	.	.	8g\J	.	8b-\	-pi-	.	.	.	.	8g\J	8b-\J	.
.	.	8r	.	2f/	.	4a\	.	.	.	8r	.	[2f\	Sae-	4a\	-ter-	.	.	.	.	2f/	4a\	8r
.	.	8c\L	.	.	.	.	.	.	.	8c\	in	.	.	.	.	.	.	.	.	.	.	8ccc\L
.	.	8e-X\	.	.	.	8cc\L	.	.	.	8e-\	Sem-	.	.	8cc\L	-na	.	.	.	.	.	8cc\L	8eee-\
.	.	8d\J	.	.	.	8b-\J	.	.	.	8d\	-pi-	.	.	8b-\J	.	.	.	.	.	.	8b-\J	8ddd\J
=107	=107	=107	=107	=107	=107	=107	=107	=107	=107	=107	=107	=107	=107	=107	=107	=107	=107	=107	=107	=107	=107	=107
!	!	!	!	!	!	!	!	!	!	!	!	!	!	!	!	!	!	!	!	!LO:LB:g=original	!	!
8r	.	8c\	.	4.f/	.	4.a/	.	8r	.	2.c\	-ter-	4.f\]	.	4.a\	Sae-	2r	.	2r	.	4.f/	4.a\	2.ccc\
8F\L	.	8f\L	.	.	.	.	.	8F\	in	.	.	.	.	.	.	.	.	.	.	.	.	.
8A\	.	8a\	.	.	.	.	.	8A\	Sem-	.	.	.	.	.	.	.	.	.	.	.	.	.
8G\J	.	8g\J	.	8en/	.	8b-/	.	8G\	-pi-	.	.	8en\	-cu-	8b-\	-cu-	.	.	.	.	8eX/	8b-\	.
4F\	.	4f\	.	4f/	.	4a/	.	4F\	-ter-	.	.	4f\	-la	4a\	-la.	4r	.	4r	.	4f/	4a\	.
4E-X\	.	4e-X\	.	4cc 4a\	.	[4ff\	.	4E-X\	-na	4c\	-na	4b-\	a-	[4ff\	a-	4f\	.	4f\	.	4a/	4cc\	[4fff\
=108	=108	=108	=108	=108	=108	=108	=108	=108	=108	=108	=108	=108	=108	=108	=108	=108	=108	=108	=108	=108	=108	=108
!	!	!	!	!	!	!LO:LB:g=original	!	!	!	!	!	!LO:LB:g=original	!	!	!	!	!	!	!	!	!	!
4D\	.	4d\	.	4b-\	.	4ff\]	.	4D\	Sae-	4B-\	Sae-	2.b-\	.	4ff\]	.	4B-\	.	4f\	.	4b-\	4b-\	4fff]
4E-\	.	4e-X\	.	2b-\	.	4gg\	.	4E-\	-cu-	4B-\	-cu-	.	.	4gg\	.	4e-\	.	4g\	.	4b-\	4gg\	4ggg\
4F\	.	4f\	.	.	.	4dd\	.	4F\	-la	4B-\	-la	.	.	4dd\	.	4f\	.	4f\	.	4b-\	4dd\	4ddd\
4FF/	.	4F/	.	4a\	.	4cc\	.	4F\	a-	4e-\	a-	4a\	.	4cc\	.	4f\	.	4f\	.	4a\	4ee-\	4ccc\
=109	=109	=109	=109	=109	=109	=109	=109	=109	=109	=109	=109	=109	=109	=109	=109	=109	=109	=109	=109	=109	=109	=109
!	!	!	!	!	!	!	!	!	!	!	!	!	!	!LO:LB:g=original	!	!	!	!	!	!	!	!
8BB-/	.	8B-/	.	8b-\	.	8b-\	.	4BB-/	-men,	4d\	-men.	4b-\	-men	4b-\	-men.	4B-/	.	4f\	.	8b-\	8dd\	8bb-\
8B-\L	.	8B-/L	.	8b-\L	.	8bb-\L	.	.	.	.	.	.	.	.	.	.	.	.	.	(8b-\L	8b-\L	8bb-\L
8d\	.	8d/	.	8dd\	.	8ddd\	.	4r	.	4r	.	4r	.	4r	.	4r	.	4r	.	8dd\	8dd\	8ddd\
8c\J	.	8c/J	.	8cc\J	.	8ccc\J	.	.	.	.	.	.	.	.	.	.	.	.	.	8cc\J)	8cc\J	8ccc\J
8B-\	.	8B-/	.	8b-\	.	8bb-\	.	2r	.	2r	.	2r	.	2r	.	2r	.	2r	.	8b-\	8b-\	8bb-\
8G\L	.	8G/L	.	8g\L	.	8gg\L	.	.	.	.	.	.	.	.	.	.	.	.	.	8g\L	8g\L	8gg\L
8B-\	.	8B-/	.	8b-\	.	8bb-\	.	.	.	.	.	.	.	.	.	.	.	.	.	8b-\	8b-\	8bb-\
8A\J	.	8A/J	.	8a\J	.	8aa\J	.	.	.	.	.	.	.	.	.	.	.	.	.	8a\J	8a\J	8aa\J
=110	=110	=110	=110	=110	=110	=110	=110	=110	=110	=110	=110	=110	=110	=110	=110	=110	=110	=110	=110	=110	=110	=110
!	!	!LO:LB:g=original	!	!	!	!	!	!	!	!	!	!	!	!	!	!	!	!	!	!	!LO:LB:g=original	!
8G\	.	8G/	.	8g/	.	8gg 8b-\	.	2r	.	2r	.	2r	.	2r	.	2r	.	2r	.	8g/	8g/	8gg\
8E-\L	.	8E-/L	.	8e-/L	.	8ee-\L	.	.	.	.	.	.	.	.	.	.	.	.	.	8e-/L	8e-/L	8ee-\L
8G\	.	8G/	.	8g/	.	8gg\	.	.	.	.	.	.	.	.	.	.	.	.	.	8g/	8g/	8gg\
8F\J	.	8F/J	.	8f/J	.	8ff\J	.	.	.	.	.	.	.	.	.	.	.	.	.	8f/J	8f/J	8ff\J
!	!LO:HP:a	!	!	!	!	!	!	!	!	!	!	!	!	!	!	!	!	!	!	!	!	!
4E-\	>	4E-/	.	4e-/	.	4ee-\	.	4r	.	4r	.	4r	.	4r	.	4r	.	4r	.	4e-\	4e-/	4ee-\
4En\	]	4G 4En/	.	4dd-X\	.	4gg 4b-\	.	4En\	a-	4B-\	a-	4g\	a-	4cc#X\	a-	4B-/	.	4g\	.	4b-\	4dd-X\	4gg\
=111	=111	=111	=111	=111	=111	=111	=111	=111	=111	=111	=111	=111	=111	=111	=111	=111	=111	=111	=111	=111	=111	=111
!LO:LB:g=original	!	!	!	!LO:LB:g=original	!	!	!	!	!	!LO:LB:g=original	!	!	!	!	!	!	!	!LO:LB:g=original	!	!	!	!LO:LB:g=original
4F\	.	4F/	.	4ddn\	.	4ff 4b-\	.	1F	.	2.B-\	.	1f	.	2dd\	.	2.B-/	.	1f	.	2.b-\	2ddn\	4ff\
4F\	.	4F/	.	4dd 4f\	.	4bb- 4dd\	.	.	.	.	.	.	.	.	.	.	.	.	.	.	.	2bb-\
4F\	.	4F/	.	4ee- 4f\	.	4bb- 4cc\	.	.	.	.	.	.	.	2ccn\	.	.	.	.	.	.	2cc\	.
4F\	.	4F/	.	4ee- 4f\	.	4aa 4cc\	.	.	.	4A\	.	.	.	.	.	4f\	.	.	.	4a\	.	4aa\
=112	=112	=112	=112	=112	=112	=112	=112	=112	=112	=112	=112	=112	=112	=112	=112	=112	=112	=112	=112	=112	=112	=112
!	!	!	!	!	!	!	!	!	!	!	!	!	!	!	!	!	!	!	!	!LO:LB:g=original	!	!
8BB-/	.	8B-\	.	8dd 8f\	.	8bb- 8dd\	.	4BB-/	-men.	4B-\	-men.	4d\	-men	4b-\	-men	4B-/	.	4f\	.	8b-\	8dd\	8bb-\
8B-\L	.	8B-\L	.	(8b-\L	.	8bb-\L	.	.	.	.	.	.	.	.	.	.	.	.	.	(8b-\L	(8b-\L	(8bb-\L
8d\	.	8d\	.	8dd\	.	8ddd\	.	4r	.	4r	.	4r	.	4r	.	4r	.	4r	.	8dd\	8dd\	8ddd\
8c\J	.	8c\J	.	8cc\J)	.	8ccc\J	.	.	.	.	.	.	.	.	.	.	.	.	.	8cc\J)	8cc\J)	8ccc\J)
8B-\	.	8B-\	.	8b-\	.	8aa\	.	2r	.	2r	.	2r	.	2r	.	2r	.	2r	.	8b-\	8b-\	8bb-\
8G\L	.	8G/L	.	8g\L	.	8gg\L	.	.	.	.	.	.	.	.	.	.	.	.	.	(8g\L	(8g\L	(8gg\L
8B-\	.	8B-/	.	8b-\	.	8bb-\	.	.	.	.	.	.	.	.	.	.	.	.	.	8b-\	8b-\	8bb-\
8A\J	.	8A/J	.	8a\J	.	8aa\J	.	.	.	.	.	.	.	.	.	.	.	.	.	8a\J)	8a\J)	8aa\J)
=113	=113	=113	=113	=113	=113	=113	=113	=113	=113	=113	=113	=113	=113	=113	=113	=113	=113	=113	=113	=113	=113	=113
!	!	!	!	!	!	!LO:LB:g=original	!	!LO:LB:g=original	!	!	!	!	!	!	!	!	!	!	!	!	!	!
8G\	.	8G/	.	8g/	.	8gg\	.	2r	.	2r	.	2r	.	2r	.	2r	.	2r	.	8g\	8g/	8gg\
8E-\L	.	8E-/L	.	8e-/L	.	(8ee-\L	.	.	.	.	.	.	.	.	.	.	.	.	.	8e-/L	8e-/L	8ee-\L
8G\	.	8G/	.	8g/	.	8gg\	.	.	.	.	.	.	.	.	.	.	.	.	.	8g/	8g/	8gg\
8F\J	.	8F/J	.	8f/J	.	8ff\J)	.	.	.	.	.	.	.	.	.	.	.	.	.	8f/J	8f/J	8ff\J
4E-\	.	4En/	.	4e-/	.	4ee-\	.	4r	.	4r	.	4r	.	4r	.	4r	.	4r	.	4e-/	4e-/	4ee-\
4En^\	.	4G 4En/	.	4dd-X\	.	4gg 4a\	.	4En\	a-	4B-\	a-	4g\	a-	4cc#X\	a-	4B-/	.	4g\	.	4b-\	4dd-X\	4gg\
=114	=114	=114	=114	=114	=114	=114	=114	=114	=114	=114	=114	=114	=114	=114	=114	=114	=114	=114	=114	=114	=114	=114
!	!	!	!	!	!	!	!	!	!	!	!	!	!	!	!	!LO:LB:g=original	!	!	!	!	!	!
4F\	.	4F/	.	4ddn\	.	4ff 4b-\	.	1F	.	2.B-\	.	1f	.	2dd\	.	2.B-/	.	1f	.	2.b-\	2ddn\	4ff\
4F\	.	4F/	.	4dd 4f\	.	4bb- 4dd\	.	.	.	.	.	.	.	.	.	.	.	.	.	.	.	2bb-\
4F\	.	4F/	.	4ee- 4f\	.	4bb- 4dd\	.	.	.	.	.	.	.	2ccn\	.	.	.	.	.	.	2cc\	.
4F\	.	4F/	.	4ee- 4f\	.	4aa 4cc\	.	.	.	4A\	.	.	.	.	.	4f\	.	.	.	4a\	.	4aa\
=115	=115	=115	=115	=115	=115	=115	=115	=115	=115	=115	=115	=115	=115	=115	=115	=115	=115	=115	=115	=115	=115	=115
!	!	!LO:LB:g=original	!	!	!	!	!	!	!	!	!	!	!	!	!	!	!	!	!	!	!LO:LB:g=original	!
4BB-/	.	4B-/	.	4dd 4f\	.	8bb- 8b-\	.	4BB-/	-men	4B-\	-men.	4d\	-men.	4b-\	-men.	4B-/	.	4f\	.	4b-\	4dd\	[1bb-
.	.	.	.	.	.	4bb- 4b-\	.	.	.	.	.	.	.	.	.	.	.	.	.	.	.	.
8BB-/L	.	8B-/L	.	8dd\L	.	.	.	4r	.	4r	.	4r	.	4r	.	2B-/	.	2B-/	.	8B-/L	8dd\L	.
8C/J	.	8c/J	.	8ee-\J	.	4bb- 4b-\	.	.	.	.	.	.	.	.	.	.	.	.	.	8c/J	8ee-\J	.
8D\L	.	8f\L	.	8ff\L	.	.	.	2r	.	2r	.	2r	.	2r	.	.	.	.	.	8d/L	8ff\L	.
8BB-\	.	8d\	.	8dd\	.	4bb- 4b-\	.	.	.	.	.	.	.	.	.	.	.	.	.	8B-/	8dd\	.
8C\	.	8e-\	.	8ee-\	.	.	.	.	.	.	.	.	.	.	.	4B-/	.	4B-/	.	8c/	8ee-\	.
8D\J	.	8f\J	.	8ff\J	.	[8bb- 8b-\	.	.	.	.	.	.	.	.	.	.	.	.	.	8d/J	8ff\J	.
=116	=116	=116	=116	=116	=116	=116	=116	=116	=116	=116	=116	=116	=116	=116	=116	=116	=116	=116	=116	=116	=116	=116
!LO:LB:g=original	!	!	!	!LO:LB:g=original	!	!	!	!	!	!	!	!LO:LB:g=original	!	!LO:LB:g=original	!	!	!	!	!	!	!	!
*	*	*	*	*	*	*rep	*	*	*	*	*	*	*	*	*	*	*	*	*	*	*	*
4E-\	.	4e-\	.	8gg 8ee-\	.	8bb-] 8b-\	.	1E-	a-	1B-	a-	1g	a-	1ee-	a-	4E-/	.	1g	.	4e-\	(1gg	1bb-_
.	.	.	.	4gg 4ee-\	.	4bb- 4b-\	.	.	.	.	.	.	.	.	.	.	.	.	.	.	.	.
4B-\	.	4b-\	.	.	.	.	.	.	.	.	.	.	.	.	.	4B-/	.	.	.	4b-\	.	.
.	.	.	.	4gg 4ee-\	.	4bb- 4b-\	.	.	.	.	.	.	.	.	.	.	.	.	.	.	.	.
4G\	.	4g\	.	.	.	.	.	.	.	.	.	.	.	.	.	4G/	.	.	.	4g\	.	.
.	.	.	.	4gg 4ee-\	.	4bb- 4b-\	.	.	.	.	.	.	.	.	.	.	.	.	.	.	.	.
4E-\	.	4e-\	.	.	.	.	.	.	.	.	.	.	.	.	.	4E-/	.	.	.	4ee-\	.	.
.	.	.	.	8gg 8ee-\	.	(8bb- 8b-\	.	.	.	.	.	.	.	.	.	.	.	.	.	.	.	.
*	*	*	*	*	*	*Xrep	*	*	*	*	*	*	*	*	*	*	*	*	*	*	*	*
=117	=117	=117	=117	=117	=117	=117	=117	=117	=117	=117	=117	=117	=117	=117	=117	=117	=117	=117	=117	=117	=117	=117
!	!	!	!	!	!	!	!	!	!	!	!	!	!	!	!	!	!	!	!	!LO:LB:g=original	!	!
*	*	*	*	*	*	*rep	*	*	*	*	*	*	*	*	*	*	*	*	*	*	*	*
4BB-/	.	4B-\	.	8ff 8dd\	.	8bb- 8b-\)	.	2B-\	-men	2B-\	-men.	2f\	-men.	2dd\	-men.	1B-	.	1f	.	1dd	1ff)	(1bb-]
.	.	.	.	4ff 4dd\	.	4bb- 4b-\	.	.	.	.	.	.	.	.	.	.	.	.	.	.	.	.
4F\	.	4f\	.	.	.	.	.	.	.	.	.	.	.	.	.	.	.	.	.	.	.	.
.	.	.	.	4ff 4dd\	.	4bb- 4b-\	.	.	.	.	.	.	.	.	.	.	.	.	.	.	.	.
4D\	.	4d\	.	.	.	.	.	2r	.	2r	.	2r	.	2r	.	.	.	.	.	.	.	.
.	.	.	.	4ff 4dd\	.	4bb- 4b-\	.	.	.	.	.	.	.	.	.	.	.	.	.	.	.	.
4BB-\	.	4B-\	.	.	.	.	.	.	.	.	.	.	.	.	.	.	.	.	.	.	.	.
.	.	.	.	8ff 8dd\	.	(8bb- 8b-\	.	.	.	.	.	.	.	.	.	.	.	.	.	.	.	.
*	*	*	*	*	*	*Xrep	*	*	*	*	*	*	*	*	*	*	*	*	*	*	*	*
=118	=118	=118	=118	=118	=118	=118	=118	=118	=118	=118	=118	=118	=118	=118	=118	=118	=118	=118	=118	=118	=118	=118
!	!	!	!	!	!	!	!	!	!	!LO:LB:g=original	!	!	!	!	!	!	!	!	!	!	!	!LO:LB:g=original
!	!	!	!	!	!	!	!	!	!	!	!	!	!	!	!	!	!	!	!	!	!	!LO:TX:a:t=P:problem=brak zakończenia łuku
4FF/	.	4F/	.	4ee- 4f\	.	4aa 4cc 4f\)	.	1F	a-	2.f\	a-	1a	a-	1cc	a-	4f\	.	4f\	.	4cc\	4ee-\	4aa\)
4r	.	4r	.	4r	.	4r	.	.	.	.	.	.	.	.	.	4r	.	4r	.	4r	4r	4r
4F\	.	4F/	.	4ee- 4f\	.	4aa 4cc 4f\	.	.	.	.	.	.	.	.	.	4f\	.	4f\	.	4cc\	4aa\	4fff\
4r	.	4r	.	4r	.	4r	.	.	.	4e-\	.	.	.	.	.	4r	.	4r	.	4r	4r	4r
=119	=119	=119	=119	=119	=119	=119	=119	=119	=119	=119	=119	=119	=119	=119	=119	=119	=119	=119	=119	=119	=119	=119
!	!	!	!	!	!	!LO:LB:g=original	!	!	!	!	!	!	!	!	!	!	!	!LO:LB:g=original	!	!	!	!
4BB-/	.	4B-/	.	8dd 8f\	.	8bb- 8dd 8f\	.	2BB-/	-men.	2d\	-men.	2b-\	-men.	2b-\	-men.	4B-/	.	4f\	.	8b-\	8dd\	8bb-\
.	.	.	.	8dd\L	.	8bb-\L	.	.	.	.	.	.	.	.	.	.	.	.	.	8b-\L	8dd\L	8bb-\L
4BB-/	.	4B-/	.	8ff\	.	8ddd\	.	.	.	.	.	.	.	.	.	4B-/	.	4f\	.	8dd\	8ff\	8ddd\
.	.	.	.	8ee-\J	.	8ccc\J	.	.	.	.	.	.	.	.	.	.	.	.	.	8cc\J	8ee-\J	8ccc\J
4BB-/	.	4B-/	.	8dd\	.	8bb-\	.	2r	.	2r	.	2r	.	2r	.	4B-/	.	4f\	.	8b-\	8dd\	8bb-\
.	.	.	.	8dd\L	.	8bb-\L	.	.	.	.	.	.	.	.	.	.	.	.	.	8b-\L	8dd\L	8bb-\L
4BB-/	.	4B-/	.	8ff\	.	8ddd\	.	.	.	.	.	.	.	.	.	4B-/	.	4f\	.	8dd\	8ff\	8ddd\
.	.	.	.	8ee-\J	.	8ccc\J	.	.	.	.	.	.	.	.	.	.	.	.	.	8cc\J	8ee-\J	8ccc\J
=120	=120	=120	=120	=120	=120	=120	=120	=120	=120	=120	=120	=120	=120	=120	=120	=120	=120	=120	=120	=120	=120	=120
!	!	!	!	!	!	!	!	!	!	!LO:TX:a:t=2.	!	!LO:TX:a:t=2.	!	!LO:TX:a:t=2.	!	!	!	!	!	!	!	!
!	!	!	!	!	!	!	!	!LO:N:vis=0	!	!LO:N:vis=0	!	!LO:N:vis=0	!	!LO:N:vis=0	!	!	!	!	!	!	!	!
4BB-/	.	4B-/	.	4dd\	.	4bb-\	.	1..r	.	1..r	.	1..r	.	1..r	.	4B-/	.	4f\	.	4b-\	4dd\	4bb-\
4r	.	4r	.	4r	.	4r	.	.	.	.	.	.	.	.	.	4r	.	4r	.	4r	4r	4r
4B-\	.	4f 4B-\	.	4bb- 4dd 4f\	.	4ddd 4ff 4b-\	.	.	.	.	.	.	.	.	.	4B-/	.	4f\	.	4dd\	4ff\	4ddd\
8r	.	8r	.	8r	.	8r	.	.	.	.	.	.	.	.	.	8r	.	8r	.	8r	8r	8r
8BB-/	.	8B-\	.	8B-/	.	8B-/	.	.	.	.	.	.	.	.	.	8BB-/	.	8B-\	.	8B-/	8B-/	8b-\
=121	=121	=121	=121	=121	=121	=121	=121	=121	=121	=121	=121	=121	=121	=121	=121	=121	=121	=121	=121	=121	=121	=121
!	!	!	!	!	!	!LO:N:vis=2	!	!	!	!	!	!	!	!	!	!	!	!	!	!	!	!LO:N:vis=2
2.BB-/	.	2.B-;/	.	2.B-;/	.	2.B-;/	.	.	.	.	.	.	.	.	.	2.BB-/	.	2.B-/	.	2.B-/	2.B-/	2.b-;\
==	==	==	==	==	==	==	==	==	==	==	==	==	==	==	==	==	==	==	==	==	==	==
*-	*-	*-	*-	*-	*-	*-	*-	*-	*-	*-	*-	*-	*-	*-	*-	*-	*-	*-	*-	*-	*-	*-
!!!system-decoration: [g1][g2][g3][g4]
!!!RDF**kern: > = above
!!!RDF**kern: < = below
!!!ENC: Marta Lawrence
!!!END: 2020-05-25
!!!ENC: Berenika Jozajtis
!!!END: 2020-03-27
!!!YEC: Copyright 2022 Narodowy Instytut Fryderyka Chopina (https://polishscores.org)
!!!YEM: License CC-BY-4.0 (https://creativecommons.org/licenses/by/4.0)
